(1001)
(T1  D=6.35 CR=0 - ZMIN=-13.2 - FLAT END MILL)
G0 G40 G90 G17
G21
(WHEN USING FUSION 360 FOR PERSONAL USE, THE FEEDRATE OF )
(RAPID MOVES IS REDUCED TO MATCH THE FEEDRATE OF CUTTING )
(MOVES, WHICH CAN INCREASE MACHINING TIME. UNRESTRICTED )
(RAPID MOVES ARE AVAILABLE WITH A FUSION 360 SUBSCRIPTION. )

(2D ADAPTIVE1 3)
T1 M6
M3 S10000
G0 X605.364 Y1096.416
G0 Z6
G1 Z2.56 F889.
G1 Z2.55
G1 X605.332 Y1096.199 Z2.542 F381.
G1 X605.316 Y1095.98 Z2.535
G1 Y1095.761 Z2.527
G1 X605.332 Y1095.542 Z2.519
G1 X605.363 Y1095.324 Z2.512
G1 X605.411 Y1095.11 Z2.504
G1 X605.474 Y1094.9 Z2.496
G1 X605.552 Y1094.695 Z2.489
G1 X605.644 Y1094.496 Z2.481
G1 X605.752 Y1094.304 Z2.473
G1 X605.872 Y1094.12 Z2.466
G1 X606.006 Y1093.946 Z2.458
G1 X606.152 Y1093.782 Z2.45
G1 X606.309 Y1093.629 Z2.443
G1 X606.478 Y1093.488 Z2.435
G1 X606.656 Y1093.36 Z2.427
G1 X606.843 Y1093.245 Z2.42
G1 X607.037 Y1093.144 Z2.412
G1 X607.239 Y1093.057 Z2.404
G1 X607.447 Y1092.985 Z2.397
G1 X607.659 Y1092.928 Z2.389
G1 X607.874 Y1092.887 Z2.381
G1 X608.092 Y1092.862 Z2.374
G1 X608.312 Y1092.853 Z2.366
G1 X608.531 Y1092.859 Z2.358
G1 X608.75 Y1092.882 Z2.351
G1 X608.966 Y1092.92 Z2.343
G1 X609.179 Y1092.974 Z2.335
G1 X609.387 Y1093.044 Z2.328
G1 X609.59 Y1093.128 Z2.32
G1 X609.786 Y1093.227 Z2.312
G1 X609.974 Y1093.34 Z2.305
G1 X610.153 Y1093.466 Z2.297
G1 X610.323 Y1093.605 Z2.289
G1 X610.483 Y1093.756 Z2.282
G1 X610.631 Y1093.918 Z2.274
G1 X610.767 Y1094.091 Z2.266
G1 X610.889 Y1094.273 Z2.259
G1 X610.999 Y1094.463 Z2.251
G1 X611.094 Y1094.661 Z2.243
G1 X611.174 Y1094.865 Z2.236
G1 X611.24 Y1095.075 Z2.228
G1 X611.29 Y1095.289 Z2.22
G1 X611.324 Y1095.505 Z2.213
G1 X611.343 Y1095.724 Z2.205
G1 X611.345 Y1095.944 Z2.197
G1 X611.332 Y1096.163 Z2.19
G1 X611.303 Y1096.381 Z2.182
G1 X611.258 Y1096.595 Z2.174
G1 X611.197 Y1096.806 Z2.167
G1 X611.121 Y1097.012 Z2.159
G1 X611.031 Y1097.212 Z2.151
G1 X610.926 Y1097.405 Z2.144
G1 X610.807 Y1097.59 Z2.136
G1 X610.675 Y1097.766 Z2.128
G1 X610.531 Y1097.931 Z2.121
G1 X610.375 Y1098.086 Z2.113
G1 X610.209 Y1098.229 Z2.105
G1 X610.032 Y1098.359 Z2.098
G1 X609.846 Y1098.476 Z2.09
G1 X609.653 Y1098.58 Z2.082
G1 X609.452 Y1098.669 Z2.075
G1 X609.245 Y1098.743 Z2.067
G1 X609.034 Y1098.802 Z2.059
G1 X608.819 Y1098.845 Z2.052
G1 X608.601 Y1098.873 Z2.044
G1 X608.382 Y1098.885 Z2.036
G1 X608.162 Y1098.881 Z2.029
G1 X607.943 Y1098.86 Z2.021
G1 X607.727 Y1098.824 Z2.013
G1 X607.514 Y1098.773 Z2.006
G1 X607.304 Y1098.705 Z1.998
G1 X607.101 Y1098.623 Z1.99
G1 X606.904 Y1098.527 Z1.983
G1 X606.714 Y1098.416 Z1.975
G1 X606.533 Y1098.292 Z1.967
G1 X606.362 Y1098.154 Z1.96
G1 X606.201 Y1098.005 Z1.952
G1 X606.051 Y1097.845 Z1.944
G1 X605.913 Y1097.674 Z1.937
G1 X605.788 Y1097.493 Z1.929
G1 X605.677 Y1097.304 Z1.921
G1 X605.58 Y1097.107 Z1.914
G1 X605.497 Y1096.904 Z1.906
G1 X605.429 Y1096.695 Z1.898
G1 X605.377 Y1096.482 Z1.891
G1 X605.34 Y1096.265 Z1.883
G1 X605.319 Y1096.047 Z1.875
G1 X605.314 Y1095.827 Z1.868
G1 X605.325 Y1095.608 Z1.86
G1 X605.352 Y1095.39 Z1.852
G1 X605.395 Y1095.175 Z1.845
G1 X605.453 Y1094.963 Z1.837
G1 X605.526 Y1094.756 Z1.829
G1 X605.615 Y1094.555 Z1.822
G1 X605.718 Y1094.361 Z1.814
G1 X605.834 Y1094.175 Z1.806
G1 X605.964 Y1093.998 Z1.799
G1 X606.106 Y1093.831 Z1.791
G1 X606.26 Y1093.675 Z1.783
G1 X606.425 Y1093.53 Z1.775
G1 X606.601 Y1093.398 Z1.768
G1 X606.785 Y1093.278 Z1.76
G1 X606.978 Y1093.173 Z1.752
G1 X607.177 Y1093.082 Z1.745
G1 X607.383 Y1093.005 Z1.737
G1 X607.594 Y1092.944 Z1.729
G1 X607.809 Y1092.898 Z1.722
G1 X608.026 Y1092.868 Z1.714
G1 X608.245 Y1092.854 Z1.706
G1 X608.465 Y1092.856 Z1.699
G1 X608.683 Y1092.873 Z1.691
G1 X608.9 Y1092.907 Z1.683
G1 X609.114 Y1092.956 Z1.676
G1 X609.324 Y1093.021 Z1.668
G1 X609.529 Y1093.101 Z1.66
G1 X609.727 Y1093.196 Z1.653
G1 X609.918 Y1093.304 Z1.645
G1 X610.1 Y1093.426 Z1.637
G1 X610.273 Y1093.562 Z1.63
G1 X610.436 Y1093.709 Z1.622
G1 X610.587 Y1093.868 Z1.614
G1 X610.727 Y1094.037 Z1.607
G1 X610.854 Y1094.217 Z1.599
G1 X610.967 Y1094.405 Z1.591
G1 X611.067 Y1094.6 Z1.584
G1 X611.152 Y1094.803 Z1.576
G1 X611.222 Y1095.011 Z1.568
G1 X611.276 Y1095.223 Z1.561
G1 X611.316 Y1095.439 Z1.553
G1 X611.339 Y1095.658 Z1.545
G1 X611.346 Y1095.877 Z1.538
G1 X611.338 Y1096.096 Z1.53
G1 X611.313 Y1096.315 Z1.522
G1 X611.273 Y1096.53 Z1.515
G1 X611.217 Y1096.743 Z1.507
G1 X611.146 Y1096.95 Z1.499
G1 X611.06 Y1097.152 Z1.492
G1 X610.959 Y1097.348 Z1.484
G1 X610.844 Y1097.535 Z1.476
G1 X610.717 Y1097.713 Z1.469
G1 X610.576 Y1097.882 Z1.461
G1 X610.424 Y1098.04 Z1.453
G1 X610.26 Y1098.187 Z1.446
G1 X610.087 Y1098.321 Z1.438
G1 X609.904 Y1098.442 Z1.43
G1 X609.712 Y1098.55 Z1.423
G1 X609.514 Y1098.643 Z1.415
G1 X609.309 Y1098.722 Z1.407
G1 X609.099 Y1098.786 Z1.4
G1 X608.884 Y1098.834 Z1.392
G1 X608.667 Y1098.866 Z1.384
G1 X608.448 Y1098.883 Z1.377
G1 X608.229 Z1.369
G1 X608.01 Y1098.868 Z1.361
G1 X607.792 Y1098.837 Z1.354
G1 X607.578 Y1098.79 Z1.346
G1 X607.367 Y1098.727 Z1.338
G1 X607.162 Y1098.65 Z1.331
G1 X606.963 Y1098.558 Z1.323
G1 X606.771 Y1098.451 Z1.315
G1 X606.587 Y1098.331 Z1.308
G1 X606.413 Y1098.197 Z1.3
G1 X606.248 Y1098.052 Z1.292
G1 X606.095 Y1097.895 Z1.285
G1 X605.954 Y1097.727 Z1.277
G1 X605.825 Y1097.549 Z1.269
G1 X605.709 Y1097.362 Z1.262
G1 X605.608 Y1097.168 Z1.254
G1 X605.52 Y1096.966 Z1.246
G1 X605.448 Y1096.759 Z1.239
G1 X605.391 Y1096.547 Z1.231
G1 X605.349 Y1096.331 Z1.223
G1 X605.324 Y1096.113 Z1.216
G1 X605.314 Y1095.894 Z1.208
G1 X605.32 Y1095.675 Z1.2
G1 X605.342 Y1095.456 Z1.193
G1 X605.38 Y1095.24 Z1.185
G1 X605.434 Y1095.027 Z1.177
G1 X605.503 Y1094.819 Z1.17
G1 X605.586 Y1094.616 Z1.162
G1 X605.685 Y1094.419 Z1.154
G1 X605.797 Y1094.231 Z1.147
G1 X605.923 Y1094.051 Z1.139
G1 X606.062 Y1093.881 Z1.131
G1 X606.212 Y1093.721 Z1.124
G1 X606.374 Y1093.573 Z1.116
G1 X606.546 Y1093.436 Z1.108
G1 X606.728 Y1093.313 Z1.101
G1 X606.918 Y1093.203 Z1.093
G1 X607.116 Y1093.108 Z1.085
G1 X607.32 Y1093.027 Z1.078
G1 X607.529 Y1092.961 Z1.07
G1 X607.743 Y1092.91 Z1.062
G1 X607.96 Y1092.875 Z1.055
G1 X608.178 Y1092.856 Z1.047
G1 X608.398 Y1092.853 Z1.039
G1 X608.617 Y1092.866 Z1.032
G1 X608.835 Y1092.895 Z1.024
G1 X609.05 Y1092.94 Z1.016
G1 X609.261 Y1093 Z1.009
G1 X609.467 Y1093.075 Z1.001
G1 X609.667 Y1093.165 Z0.993
G1 X609.86 Y1093.27 Z0.986
G1 X610.045 Y1093.388 Z0.978
G1 X610.221 Y1093.519 Z0.97
G1 X610.387 Y1093.663 Z0.963
G1 X610.542 Y1093.819 Z0.955
G1 X610.686 Y1093.985 Z0.947
G1 X610.816 Y1094.161 Z0.94
G1 X610.934 Y1094.347 Z0.932
G1 X611.038 Y1094.54 Z0.924
G1 X611.127 Y1094.741 Z0.917
G1 X611.202 Y1094.947 Z0.909
G1 X611.261 Y1095.158 Z0.901
G1 X611.305 Y1095.373 Z0.894
G1 X611.333 Y1095.591 Z0.886
G1 X611.346 Y1095.81 Z0.878
G1 X611.342 Y1096.03 Z0.871
G1 X611.322 Y1096.249 Z0.863
G1 X611.287 Y1096.465 Z0.855
G1 X611.236 Y1096.679 Z0.848
G1 X611.169 Y1096.888 Z0.84
G1 X611.087 Y1097.092 Z0.832
G1 X610.991 Y1097.289 Z0.825
G1 X610.881 Y1097.479 Z0.817
G1 X610.757 Y1097.66 Z0.809
G1 X610.62 Y1097.832 Z0.802
G1 X610.471 Y1097.993 Z0.794
G1 X610.311 Y1098.143 Z0.786
G1 X610.14 Y1098.281 Z0.779
G1 X609.96 Y1098.407 Z0.771
G1 X609.771 Y1098.519 Z0.763
G1 X609.575 Y1098.616 Z0.756
G1 X609.371 Y1098.7 Z0.748
G1 X609.163 Y1098.768 Z0.74
G1 X608.95 Y1098.821 Z0.733
G1 X608.733 Y1098.858 Z0.725
G1 X608.515 Y1098.88 Z0.717
G1 X608.295 Y1098.885 Z0.71
G1 X608.076 Y1098.874 Z0.702
G1 X607.858 Y1098.848 Z0.694
G1 X607.643 Y1098.806 Z0.687
G1 X607.431 Y1098.748 Z0.679
G1 X607.224 Y1098.675 Z0.671
G1 X607.023 Y1098.587 Z0.664
G1 X606.828 Y1098.485 Z0.656
G1 X606.642 Y1098.369 Z0.648
G1 X606.465 Y1098.239 Z0.641
G1 X606.297 Y1098.097 Z0.633
G1 X606.141 Y1097.944 Z0.625
G1 X605.995 Y1097.779 Z0.618
G1 X605.863 Y1097.604 Z0.61
G1 X605.743 Y1097.42 Z0.602
G1 X605.637 Y1097.228 Z0.595
G1 X605.545 Y1097.028 Z0.587
G1 X605.468 Y1096.822 Z0.579
G1 X605.407 Y1096.612 Z0.572
G1 X605.36 Y1096.397 Z0.564
G1 X605.33 Y1096.18 Z0.556
G1 X605.315 Y1095.961 Z0.549
G1 X605.316 Y1095.741 Z0.541
G1 X605.334 Y1095.522 Z0.533
G1 X605.367 Y1095.305 Z0.526
G1 X605.416 Y1095.091 Z0.518
G1 X605.48 Y1094.881 Z0.51
G1 X605.559 Y1094.677 Z0.503
G1 X605.653 Y1094.478 Z0.495
G1 X605.762 Y1094.287 Z0.487
G1 X605.884 Y1094.105 Z0.48
G1 X606.018 Y1093.931 Z0.472
G1 X606.165 Y1093.768 Z0.464
G1 X606.324 Y1093.616 Z0.457
G1 X606.493 Y1093.476 Z0.449
G1 X606.672 Y1093.349 Z0.441
G1 X606.86 Y1093.235 Z0.434
G1 X607.055 Y1093.135 Z0.426
G1 X607.257 Y1093.05 Z0.418
G1 X607.465 Y1092.979 Z0.411
G1 X607.678 Y1092.924 Z0.403
G1 X607.894 Y1092.884 Z0.395
G1 X608.112 Y1092.861 Z0.388
G1 X608.331 Y1092.853 Z0.38
G1 X608.551 Y1092.861 Z0.372
G1 X608.769 Y1092.885 Z0.365
G1 X608.985 Y1092.925 Z0.357
G1 X609.197 Y1092.98 Z0.349
G1 X609.405 Y1093.051 Z0.342
G1 X609.607 Y1093.136 Z0.334
G1 X609.803 Y1093.237 Z0.326
G1 X609.99 Y1093.351 Z0.319
G1 X610.169 Y1093.478 Z0.311
G1 X610.338 Y1093.618 Z0.303
G1 X610.496 Y1093.77 Z0.296
G1 X610.643 Y1093.933 Z0.288
G1 X610.778 Y1094.107 Z0.28
G1 X610.9 Y1094.289 Z0.273
G1 X611.008 Y1094.481 Z0.265
G1 X611.102 Y1094.679 Z0.257
G1 X611.181 Y1094.884 Z0.249
G1 X611.245 Y1095.094 Z0.242
G1 X611.294 Y1095.308 Z0.234
G1 X611.327 Y1095.525 Z0.226
G1 X611.344 Y1095.744 Z0.219
G1 X611.345 Y1095.963 Z0.211
G1 X611.33 Y1096.182 Z0.203
G1 X611.299 Y1096.4 Z0.196
G1 X611.253 Y1096.614 Z0.188
G1 X611.191 Y1096.825 Z0.18
G1 X611.114 Y1097.03 Z0.173
G1 X611.022 Y1097.23 Z0.165
G1 X610.916 Y1097.422 Z0.157
G1 X610.796 Y1097.606 Z0.15
G1 X610.663 Y1097.781 Z0.142
G1 X610.518 Y1097.945 Z0.134
G1 X610.361 Y1098.099 Z0.127
G1 X610.193 Y1098.241 Z0.119
G1 X610.016 Y1098.37 Z0.111
G1 X609.829 Y1098.486 Z0.104
G1 X609.635 Y1098.588 Z0.096
G1 X609.434 Y1098.676 Z0.088
G1 X609.227 Y1098.749 Z0.081
G1 X609.015 Y1098.806 Z0.073
G1 X608.799 Y1098.848 Z0.065
G1 X608.581 Y1098.875 Z0.058
G1 X608.362 Y1098.885 Z0.05
G1 X608.143 Y1098.879 Z0.042
G1 X607.924 Y1098.858 Z0.035
G1 X607.708 Y1098.82 Z0.027
G1 X607.495 Y1098.767 Z0.019
G1 X607.286 Y1098.699 Z0.012
G1 X607.083 Y1098.615 Z0.004
G1 X606.887 Y1098.517 Z-0.004
G1 X606.698 Y1098.405 Z-0.011
G1 X606.518 Y1098.28 Z-0.019
G1 X606.347 Y1098.142 Z-0.027
G1 X606.187 Y1097.991 Z-0.034
G1 X606.038 Y1097.83 Z-0.042
G1 X605.902 Y1097.658 Z-0.05
G1 X605.778 Y1097.477 Z-0.057
G1 X605.668 Y1097.287 Z-0.065
G1 X605.572 Y1097.089 Z-0.073
G1 X605.49 Y1096.886 Z-0.08
G1 X605.424 Y1096.676 Z-0.088
G1 X605.373 Y1096.463 Z-0.096
G1 X605.337 Y1096.246 Z-0.103
G1 X605.318 Y1096.027 Z-0.111
G1 X605.314 Y1095.808 Z-0.119
G1 X605.327 Y1095.589 Z-0.126
G1 X605.355 Y1095.371 Z-0.134
G1 X605.399 Y1095.156 Z-0.142
G1 X605.459 Y1094.945 Z-0.149
G1 X605.534 Y1094.738 Z-0.157
G1 X605.623 Y1094.538 Z-0.165
G1 X605.727 Y1094.344 Z-0.172
G1 X605.845 Y1094.159 Z-0.18
G1 X605.976 Y1093.983 Z-0.188
G1 X606.119 Y1093.817 Z-0.195
G1 X606.275 Y1093.661 Z-0.203
G1 X606.441 Y1093.518 Z-0.211
G1 X606.617 Y1093.386 Z-0.218
G1 X606.802 Y1093.268 Z-0.226
G1 X606.995 Y1093.164 Z-0.234
G1 X607.195 Y1093.074 Z-0.241
G1 X607.402 Y1092.999 Z-0.249
G1 X607.613 Y1092.939 Z-0.257
G1 X607.828 Y1092.895 Z-0.264
G1 X608.045 Y1092.866 Z-0.272
G1 X608.265 Y1092.853 Z-0.28
G1 X608.484 Y1092.857 Z-0.287
G1 X608.703 Y1092.876 Z-0.295
G1 X608.92 Y1092.911 Z-0.303
G1 X609.133 Y1092.962 Z-0.31
G1 X609.343 Y1093.028 Z-0.318
G1 X609.547 Y1093.109 Z-0.326
G1 X609.744 Y1093.205 Z-0.333
G1 X609.934 Y1093.315 Z-0.341
G1 X610.116 Y1093.438 Z-0.349
G1 X610.288 Y1093.574 Z-0.356
G1 X610.449 Y1093.723 Z-0.364
G1 X610.6 Y1093.883 Z-0.372
G1 X610.738 Y1094.053 Z-0.379
G1 X610.864 Y1094.233 Z-0.387
G1 X610.976 Y1094.422 Z-0.395
G1 X611.075 Y1094.618 Z-0.402
G1 X611.158 Y1094.821 Z-0.41
G1 X611.227 Y1095.029 Z-0.418
G1 X611.281 Y1095.242 Z-0.425
G1 X611.318 Y1095.459 Z-0.433
G1 X611.34 Y1095.677 Z-0.441
G1 X611.346 Y1095.897 Z-0.448
G1 X611.336 Y1096.116 Z-0.456
G1 X611.31 Y1096.334 Z-0.464
G1 X611.269 Y1096.549 Z-0.471
G1 X611.211 Y1096.761 Z-0.479
G1 X611.139 Y1096.969 Z-0.487
G1 X611.051 Y1097.17 Z-0.494
G1 X610.949 Y1097.364 Z-0.502
G1 X610.834 Y1097.551 Z-0.51
G1 X610.705 Y1097.729 Z-0.517
G1 X610.563 Y1097.897 Z-0.525
G1 X610.41 Y1098.054 Z-0.533
G1 X610.245 Y1098.199 Z-0.54
G1 X610.071 Y1098.332 Z-0.548
G1 X609.887 Y1098.452 Z-0.556
G1 X609.695 Y1098.559 Z-0.563
G1 X609.496 Y1098.651 Z-0.571
G1 X609.29 Y1098.728 Z-0.579
G1 X609.08 Y1098.791 Z-0.586
G1 X608.865 Y1098.837 Z-0.594
G1 X608.648 Y1098.868 Z-0.602
G1 X608.429 Y1098.884 Z-0.609
G1 X608.209 Y1098.883 Z-0.617
G1 X607.99 Y1098.866 Z-0.625
G1 X607.773 Y1098.833 Z-0.632
G1 X607.559 Y1098.785 Z-0.64
G1 X607.349 Y1098.721 Z-0.648
G1 X607.144 Y1098.642 Z-0.655
G1 X606.946 Y1098.549 Z-0.663
G1 X606.754 Y1098.441 Z-0.671
G1 X606.571 Y1098.319 Z-0.678
G1 X606.398 Y1098.185 Z-0.686
G1 X606.234 Y1098.038 Z-0.694
G1 X606.082 Y1097.88 Z-0.701
G1 X605.942 Y1097.711 Z-0.709
G1 X605.814 Y1097.533 Z-0.717
G1 X605.7 Y1097.345 Z-0.724
G1 X605.599 Y1097.15 Z-0.732
G1 X605.513 Y1096.948 Z-0.74
G1 X605.442 Y1096.74 Z-0.747
G1 X605.387 Y1096.528 Z-0.755
G1 X605.346 Y1096.312 Z-0.763
G1 X605.322 Y1096.094 Z-0.77
G1 X605.314 Y1095.875 Z-0.778
G1 X605.321 Y1095.655 Z-0.786
G1 X605.345 Y1095.437 Z-0.793
G1 X605.384 Y1095.221 Z-0.801
G1 X605.439 Y1095.008 Z-0.809
G1 X605.509 Y1094.8 Z-0.816
G1 X605.595 Y1094.598 Z-0.824
G1 X605.694 Y1094.402 Z-0.832
G1 X605.808 Y1094.215 Z-0.839
G1 X605.935 Y1094.035 Z-0.847
G1 X606.075 Y1093.866 Z-0.855
G1 X606.226 Y1093.707 Z-0.862
G1 X606.389 Y1093.56 Z-0.87
G1 X606.562 Y1093.425 Z-0.878
G1 X606.745 Y1093.303 Z-0.885
G1 X606.936 Y1093.194 Z-0.893
G1 X607.134 Y1093.1 Z-0.901
G1 X607.338 Y1093.02 Z-0.908
G1 X607.548 Y1092.956 Z-0.916
G1 X607.762 Y1092.907 Z-0.924
G1 X607.979 Y1092.873 Z-0.931
G1 X608.198 Y1092.856 Z-0.939
G1 X608.417 Y1092.854 Z-0.947
G1 X608.637 Y1092.868 Z-0.954
G1 X608.854 Y1092.898 Z-0.962
G1 X609.069 Y1092.944 Z-0.97
G1 X609.279 Y1093.006 Z-0.977
G1 X609.485 Y1093.083 Z-0.985
G1 X609.685 Y1093.174 Z-0.993
G1 X609.877 Y1093.28 Z-1
G1 X610.061 Y1093.399 Z-1.008
G1 X610.237 Y1093.532 Z-1.016
G1 X610.401 Y1093.676 Z-1.023
G1 X610.555 Y1093.833 Z-1.031
G1 X610.698 Y1094 Z-1.039
G1 X610.827 Y1094.177 Z-1.046
G1 X610.944 Y1094.364 Z-1.054
G1 X611.046 Y1094.558 Z-1.062
G1 X611.135 Y1094.759 Z-1.069
G1 X611.208 Y1094.966 Z-1.077
G1 X611.266 Y1095.177 Z-1.085
G1 X611.308 Y1095.393 Z-1.092
G1 X611.335 Y1095.611 Z-1.1
G1 X611.346 Y1095.83 Z-1.108
G1 X611.341 Y1096.049 Z-1.115
G1 X611.32 Y1096.268 Z-1.123
G1 X611.283 Y1096.484 Z-1.131
G1 X611.23 Y1096.697 Z-1.138
G1 X611.162 Y1096.906 Z-1.146
G1 X611.079 Y1097.11 Z-1.154
G1 X610.982 Y1097.306 Z-1.161
G1 X610.87 Y1097.495 Z-1.169
G1 X610.745 Y1097.676 Z-1.177
G1 X610.607 Y1097.847 Z-1.184
G1 X610.457 Y1098.007 Z-1.192
G1 X610.296 Y1098.156 Z-1.2
G1 X610.125 Y1098.293 Z-1.207
G1 X609.944 Y1098.417 Z-1.215
G1 X609.754 Y1098.528 Z-1.223
G1 X609.557 Y1098.624 Z-1.23
G1 X609.353 Y1098.706 Z-1.238
G1 X609.144 Y1098.773 Z-1.246
G1 X608.931 Y1098.825 Z-1.253
G1 X608.714 Y1098.861 Z-1.261
G1 X608.495 Y1098.881 Z-1.269
G1 X608.276 Y1098.885 Z-1.277
G1 X608.057 Y1098.873 Z-1.284
G1 X607.839 Y1098.845 Z-1.292
G1 X607.624 Y1098.801 Z-1.3
G1 X607.412 Y1098.742 Z-1.307
G1 X607.206 Y1098.668 Z-1.315
G1 X607.005 Y1098.579 Z-1.323
G1 X606.812 Y1098.475 Z-1.33
G1 X606.626 Y1098.358 Z-1.338
G1 X606.449 Y1098.227 Z-1.346
G1 X606.283 Y1098.084 Z-1.353
G1 X606.127 Y1097.929 Z-1.361
G1 X605.983 Y1097.764 Z-1.369
G1 X605.852 Y1097.588 Z-1.376
G1 X605.733 Y1097.403 Z-1.384
G1 X605.628 Y1097.21 Z-1.392
G1 X605.538 Y1097.01 Z-1.399
G1 X605.462 Y1096.804 Z-1.407
G1 X605.402 Y1096.593 Z-1.415
G1 X605.357 Y1096.378 Z-1.422
G1 X605.328 Y1096.16 Z-1.43
G1 X605.315 Y1095.941 Z-1.438
G1 X605.317 Y1095.722 Z-1.445
G1 X605.336 Y1095.503 Z-1.453
G1 X605.371 Y1095.286 Z-1.461
G1 X605.421 Y1095.072 Z-1.468
G1 X605.486 Y1094.863 Z-1.476
G1 X605.567 Y1094.659 Z-1.484
G1 X605.663 Y1094.461 Z-1.491
G1 X605.772 Y1094.271 Z-1.499
G1 X605.895 Y1094.089 Z-1.507
G1 X606.031 Y1093.916 Z-1.514
G1 X606.179 Y1093.754 Z-1.522
G1 X606.339 Y1093.604 Z-1.53
G1 X606.509 Y1093.465 Z-1.537
G1 X606.688 Y1093.339 Z-1.545
G1 X606.877 Y1093.226 Z-1.553
G1 X607.073 Y1093.127 Z-1.56
G1 X607.276 Y1093.043 Z-1.568
G1 X607.484 Y1092.974 Z-1.576
G1 X607.697 Y1092.92 Z-1.583
G1 X607.913 Y1092.882 Z-1.591
G1 X608.131 Y1092.859 Z-1.599
G1 X608.351 Y1092.853 Z-1.606
G1 X608.57 Y1092.862 Z-1.614
G1 X608.788 Y1092.888 Z-1.622
G1 X609.004 Y1092.929 Z-1.629
G1 X609.216 Y1092.986 Z-1.637
G1 X609.423 Y1093.058 Z-1.645
G1 X609.625 Y1093.145 Z-1.652
G1 X609.82 Y1093.246 Z-1.66
G1 X610.006 Y1093.361 Z-1.668
G1 X610.184 Y1093.49 Z-1.675
G1 X610.353 Y1093.631 Z-1.683
G1 X610.51 Y1093.784 Z-1.691
G1 X610.656 Y1093.948 Z-1.698
G1 X610.789 Y1094.123 Z-1.706
G1 X610.91 Y1094.306 Z-1.714
G1 X611.017 Y1094.498 Z-1.721
G1 X611.109 Y1094.697 Z-1.729
G1 X611.187 Y1094.902 Z-1.737
G1 X611.25 Y1095.113 Z-1.744
G1 X611.297 Y1095.327 Z-1.752
G1 X611.329 Y1095.544 Z-1.76
G1 X611.344 Y1095.763 Z-1.767
G1 Y1095.983 Z-1.775
G1 X611.328 Y1096.202 Z-1.783
G1 X611.296 Y1096.419 Z-1.79
G1 X611.248 Y1096.633 Z-1.798
G1 X611.185 Y1096.843 Z-1.806
G1 X611.106 Y1097.048 Z-1.813
G1 X611.013 Y1097.247 Z-1.821
G1 X610.906 Y1097.439 Z-1.829
G1 X610.785 Y1097.622 Z-1.836
G1 X610.651 Y1097.796 Z-1.844
G1 X610.504 Y1097.959 Z-1.852
G1 X610.346 Y1098.112 Z-1.859
G1 X610.178 Y1098.253 Z-1.867
G1 X610 Y1098.381 Z-1.875
G1 X609.812 Y1098.496 Z-1.882
G1 X609.617 Y1098.597 Z-1.89
G1 X609.416 Y1098.683 Z-1.898
G1 X609.208 Y1098.755 Z-1.905
G1 X608.996 Y1098.811 Z-1.913
G1 X608.78 Y1098.851 Z-1.921
G1 X608.562 Y1098.876 Z-1.928
G1 X608.343 Y1098.885 Z-1.936
G1 X608.123 Y1098.878 Z-1.944
G1 X607.905 Y1098.855 Z-1.951
G1 X607.689 Y1098.816 Z-1.959
G1 X607.476 Y1098.762 Z-1.967
G1 X607.268 Y1098.692 Z-1.974
G1 X607.065 Y1098.607 Z-1.982
G1 X606.87 Y1098.508 Z-1.99
G1 X606.681 Y1098.395 Z-1.997
G1 X606.502 Y1098.268 Z-2.005
G1 X606.332 Y1098.129 Z-2.013
G1 X606.173 Y1097.978 Z-2.02
G1 X606.026 Y1097.815 Z-2.028
G1 X605.89 Y1097.642 Z-2.036
G1 X605.768 Y1097.46 Z-2.043
G1 X605.659 Y1097.27 Z-2.051
G1 X605.564 Y1097.072 Z-2.059
G1 X605.484 Y1096.867 Z-2.066
G1 X605.419 Y1096.657 Z-2.074
G1 X605.369 Y1096.444 Z-2.082
G1 X605.335 Y1096.227 Z-2.089
G1 X605.317 Y1096.008 Z-2.097
G1 X605.315 Y1095.788 Z-2.105
G1 X605.329 Y1095.569 Z-2.112
G1 X605.358 Y1095.352 Z-2.12
G1 X605.404 Y1095.137 Z-2.128
G1 X605.465 Y1094.926 Z-2.135
G1 X605.541 Y1094.72 Z-2.143
G1 X605.632 Y1094.52 Z-2.151
G1 X605.737 Y1094.328 Z-2.158
G1 X605.856 Y1094.143 Z-2.166
G1 X605.988 Y1093.968 Z-2.174
G1 X606.133 Y1093.802 Z-2.181
G1 X606.289 Y1093.648 Z-2.189
G1 X606.456 Y1093.506 Z-2.197
G1 X606.633 Y1093.375 Z-2.204
G1 X606.819 Y1093.259 Z-2.212
G1 X607.013 Y1093.156 Z-2.22
G1 X607.213 Y1093.067 Z-2.227
G1 X607.42 Y1092.993 Z-2.235
G1 X607.632 Y1092.935 Z-2.243
G1 X607.847 Y1092.892 Z-2.25
G1 X608.065 Y1092.864 Z-2.258
G1 X608.284 Y1092.853 Z-2.266
G1 X608.504 Y1092.858 Z-2.273
G1 X608.722 Y1092.878 Z-2.281
G1 X608.939 Y1092.915 Z-2.289
G1 X609.152 Y1092.967 Z-2.296
G1 X609.361 Y1093.034 Z-2.304
G1 X609.564 Y1093.117 Z-2.312
G1 X609.761 Y1093.214 Z-2.319
G1 X609.951 Y1093.325 Z-2.327
G1 X610.131 Y1093.45 Z-2.335
G1 X610.303 Y1093.587 Z-2.342
G1 X610.463 Y1093.737 Z-2.35
G1 X610.613 Y1093.897 Z-2.358
G1 X610.75 Y1094.069 Z-2.365
G1 X610.875 Y1094.249 Z-2.373
G1 X610.986 Y1094.439 Z-2.381
G1 X611.083 Y1094.636 Z-2.388
G1 X611.165 Y1094.839 Z-2.396
G1 X611.232 Y1095.048 Z-2.404
G1 X611.284 Y1095.261 Z-2.411
G1 X611.321 Y1095.478 Z-2.419
G1 X611.341 Y1095.697 Z-2.427
G1 X611.346 Y1095.916 Z-2.434
G1 X611.334 Y1096.135 Z-2.442
G1 X611.307 Y1096.353 Z-2.45
G1 X611.264 Y1096.568 Z-2.457
G1 X611.205 Y1096.78 Z-2.465
G1 X611.131 Y1096.987 Z-2.473
G1 X611.043 Y1097.188 Z-2.48
G1 X610.94 Y1097.381 Z-2.488
G1 X610.823 Y1097.567 Z-2.496
G1 X610.693 Y1097.744 Z-2.503
G1 X610.55 Y1097.911 Z-2.511
G1 X610.396 Y1098.067 Z-2.519
G1 X610.23 Y1098.211 Z-2.526
G1 X610.055 Y1098.343 Z-2.534
G1 X609.87 Y1098.462 Z-2.542
G1 X609.677 Y1098.567 Z-2.549
G1 X609.478 Y1098.658 Z-2.557
G1 X609.272 Y1098.734 Z-2.565
G1 X609.061 Y1098.795 Z-2.572
G1 X608.846 Y1098.841 Z-2.58
G1 X608.628 Y1098.87 Z-2.588
G1 X608.409 Y1098.884 Z-2.595
G1 X608.19 Y1098.882 Z-2.603
G1 X607.971 Y1098.864 Z-2.611
G1 X607.754 Y1098.83 Z-2.618
G1 X607.54 Y1098.78 Z-2.626
G1 X607.331 Y1098.715 Z-2.634
G1 X607.126 Y1098.635 Z-2.641
G1 X606.928 Y1098.54 Z-2.649
G1 X606.738 Y1098.431 Z-2.657
G1 X606.556 Y1098.308 Z-2.664
G1 X606.383 Y1098.172 Z-2.672
G1 X606.22 Y1098.025 Z-2.68
G1 X606.069 Y1097.866 Z-2.687
G1 X605.93 Y1097.696 Z-2.695
G1 X605.803 Y1097.516 Z-2.703
G1 X605.69 Y1097.328 Z-2.71
G1 X605.591 Y1097.132 Z-2.718
G1 X605.507 Y1096.93 Z-2.726
G1 X605.437 Y1096.722 Z-2.733
G1 X605.382 Y1096.509 Z-2.741
G1 X605.344 Y1096.293 Z-2.749
G1 X605.321 Y1096.074 Z-2.756
G1 X605.314 Y1095.855 Z-2.764
G1 X605.323 Y1095.636 Z-2.772
G1 X605.348 Y1095.418 Z-2.779
G1 X605.388 Y1095.202 Z-2.787
G1 X605.445 Y1094.99 Z-2.795
G1 X605.516 Y1094.782 Z-2.803
G1 X605.603 Y1094.58 Z-2.81
G1 X605.704 Y1094.385 Z-2.818
G1 X605.819 Y1094.198 Z-2.826
G1 X605.947 Y1094.02 Z-2.833
G1 X606.088 Y1093.852 Z-2.841
G1 X606.24 Y1093.694 Z-2.849
G1 X606.404 Y1093.548 Z-2.856
G1 X606.578 Y1093.414 Z-2.864
G1 X606.761 Y1093.293 Z-2.872
G1 X606.953 Y1093.185 Z-2.879
G1 X607.152 Y1093.092 Z-2.887
G1 X607.357 Y1093.014 Z-2.895
G1 X607.567 Y1092.951 Z-2.902
G1 X607.781 Y1092.903 Z-2.91
G1 X607.998 Y1092.871 Z-2.918
G1 X608.217 Y1092.855 Z-2.925
G1 X608.437 Z-2.933
G1 X608.656 Y1092.87 Z-2.941
G1 X608.873 Y1092.902 Z-2.948
G1 X609.088 Y1092.949 Z-2.956
G1 X609.298 Y1093.012 Z-2.964
G1 X609.503 Y1093.09 Z-2.971
G1 X609.702 Y1093.183 Z-2.979
G1 X609.894 Y1093.29 Z-2.987
G1 X610.077 Y1093.41 Z-2.994
G1 X610.252 Y1093.544 Z-3.002
G1 X610.416 Y1093.69 Z-3.01
G1 X610.569 Y1093.847 Z-3.017
G1 X610.71 Y1094.016 Z-3.025
G1 X610.838 Y1094.194 Z-3.033
G1 X610.953 Y1094.38 Z-3.04
G1 X611.055 Y1094.575 Z-3.048
G1 X611.142 Y1094.777 Z-3.056
G1 X611.214 Y1094.984 Z-3.063
G1 X611.27 Y1095.196 Z-3.071
G1 X611.311 Y1095.412 Z-3.079
G1 X611.337 Y1095.63 Z-3.086
G1 X611.346 Y1095.849 Z-3.094
G1 X611.34 Y1096.069 Z-3.102
G1 X611.317 Y1096.287 Z-3.109
G1 X611.279 Y1096.503 Z-3.117
G1 X611.225 Y1096.716 Z-3.125
G1 X611.156 Y1096.925 Z-3.132
G1 X611.071 Y1097.127 Z-3.14
G1 X610.972 Y1097.323 Z-3.148
G1 X610.86 Y1097.512 Z-3.155
G1 X610.733 Y1097.691 Z-3.163
G1 X610.595 Y1097.861 Z-3.171
G1 X610.444 Y1098.021 Z-3.178
G1 X610.281 Y1098.169 Z-3.186
G1 X610.109 Y1098.305 Z-3.194
G1 X609.927 Y1098.428 Z-3.201
G1 X609.737 Y1098.537 Z-3.209
G1 X609.539 Y1098.632 Z-3.217
G1 X609.335 Y1098.713 Z-3.224
G1 X609.125 Y1098.778 Z-3.232
G1 X608.912 Y1098.829 Z-3.24
G1 X608.695 Y1098.863 Z-3.247
G1 X608.476 Y1098.882 Z-3.255
G1 X608.256 Y1098.884 Z-3.263
G1 X608.037 Y1098.871 Z-3.27
G1 X607.82 Y1098.842 Z-3.278
G1 X607.605 Y1098.797 Z-3.286
G1 X607.394 Y1098.736 Z-3.293
G1 X607.188 Y1098.66 Z-3.301
G1 X606.988 Y1098.57 Z-3.309
G1 X606.795 Y1098.465 Z-3.316
G1 X606.61 Y1098.347 Z-3.324
G1 X606.434 Y1098.215 Z-3.332
G1 X606.269 Y1098.071 Z-3.339
G1 X606.114 Y1097.915 Z-3.347
G1 X605.971 Y1097.748 Z-3.355
G1 X605.841 Y1097.572 Z-3.362
G1 X605.723 Y1097.386 Z-3.37
G1 X605.62 Y1097.193 Z-3.378
G1 X605.531 Y1096.992 Z-3.385
G1 X605.456 Y1096.785 Z-3.393
G1 X605.397 Y1096.574 Z-3.401
G1 X605.354 Y1096.359 Z-3.408
G1 X605.326 Y1096.141 Z-3.416
G1 X605.314 Y1095.922 Z-3.424
G1 X605.318 Y1095.702 Z-3.431
G1 X605.338 Y1095.484 Z-3.439
G1 X605.374 Y1095.267 Z-3.447
G1 X605.426 Y1095.054 Z-3.454
G1 X605.493 Y1094.845 Z-3.462
G1 X605.575 Y1094.641 Z-3.47
G1 X605.672 Y1094.444 Z-3.477
G1 X605.782 Y1094.254 Z-3.485
G1 X605.907 Y1094.073 Z-3.493
G1 X606.044 Y1093.902 Z-3.5
G1 X606.193 Y1093.741 Z-3.508
G1 X606.353 Y1093.591 Z-3.516
G1 X606.524 Y1093.453 Z-3.523
G1 X606.705 Y1093.328 Z-3.531
G1 X606.894 Y1093.217 Z-3.539
G1 X607.091 Y1093.119 Z-3.546
G1 X607.294 Y1093.036 Z-3.554
G1 X607.503 Y1092.968 Z-3.562
G1 X607.716 Y1092.916 Z-3.569
G1 X607.932 Y1092.879 Z-3.577
G1 X608.151 Y1092.858 Z-3.585
G1 X608.37 Y1092.853 Z-3.592
G1 X608.59 Y1092.864 Z-3.6
G1 X608.807 Y1092.891 Z-3.608
G1 X609.023 Y1092.933 Z-3.615
G1 X609.235 Y1092.991 Z-3.623
G1 X609.441 Y1093.065 Z-3.631
G1 X609.642 Y1093.153 Z-3.638
G1 X609.837 Y1093.256 Z-3.646
G1 X610.023 Y1093.372 Z-3.654
G1 X610.2 Y1093.502 Z-3.661
G1 X610.367 Y1093.644 Z-3.669
G1 X610.523 Y1093.798 Z-3.677
G1 X610.668 Y1093.963 Z-3.684
G1 X610.801 Y1094.139 Z-3.692
G1 X610.92 Y1094.323 Z-3.7
G1 X611.025 Y1094.515 Z-3.707
G1 X611.117 Y1094.715 Z-3.715
G1 X611.193 Y1094.921 Z-3.723
G1 X611.255 Y1095.131 Z-3.73
G1 X611.301 Y1095.346 Z-3.738
G1 X611.331 Y1095.564 Z-3.746
G1 X611.345 Y1095.783 Z-3.753
G1 X611.343 Y1096.002 Z-3.761
G1 X611.326 Y1096.221 Z-3.769
G1 X611.292 Y1096.438 Z-3.776
G1 X611.243 Y1096.652 Z-3.784
G1 X611.178 Y1096.862 Z-3.792
G1 X611.098 Y1097.066 Z-3.799
G1 X611.004 Y1097.265 Z-3.807
G1 X610.895 Y1097.455 Z-3.815
G1 X610.773 Y1097.638 Z-3.822
G1 X610.638 Y1097.811 Z-3.83
G1 X610.491 Y1097.973 Z-3.838
G1 X610.332 Y1098.125 Z-3.845
G1 X610.162 Y1098.265 Z-3.853
G1 X609.983 Y1098.392 Z-3.861
G1 X609.795 Y1098.505 Z-3.868
G1 X609.6 Y1098.605 Z-3.876
G1 X609.397 Y1098.69 Z-3.884
G1 X609.189 Y1098.76 Z-3.891
G1 X608.977 Y1098.815 Z-3.899
G1 X608.761 Y1098.854 Z-3.907
G1 X608.543 Y1098.878 Z-3.914
G1 X608.323 Y1098.885 Z-3.922
G1 X608.104 Y1098.877 Z-3.93
G1 X607.886 Y1098.852 Z-3.937
G1 X607.67 Y1098.812 Z-3.945
G1 X607.457 Y1098.756 Z-3.953
G1 X607.25 Y1098.685 Z-3.96
G1 X607.048 Y1098.599 Z-3.968
G1 X606.853 Y1098.498 Z-3.976
G1 X606.665 Y1098.384 Z-3.983
G1 X606.487 Y1098.256 Z-3.991
G1 X606.318 Y1098.116 Z-3.999
G1 X606.16 Y1097.964 Z-4.006
G1 X606.013 Y1097.8 Z-4.014
G1 X605.879 Y1097.626 Z-4.022
G1 X605.757 Y1097.444 Z-4.029
G1 X605.65 Y1097.252 Z-4.037
G1 X605.556 Y1097.054 Z-4.045
G1 X605.477 Y1096.849 Z-4.052
G1 X605.414 Y1096.639 Z-4.06
G1 X605.365 Y1096.424 Z-4.068
G1 X605.333 Y1096.207 Z-4.075
G1 X605.316 Y1095.988 Z-4.083
G1 X605.315 Y1095.769 Z-4.091
G1 X605.331 Y1095.55 Z-4.098
G1 X605.362 Y1095.333 Z-4.106
G1 X605.409 Y1095.118 Z-4.114
G1 X605.471 Y1094.908 Z-4.121
G1 X605.549 Y1094.702 Z-4.129
G1 X605.641 Y1094.503 Z-4.137
G1 X605.747 Y1094.311 Z-4.144
G1 X605.867 Y1094.127 Z-4.152
G1 X606.001 Y1093.953 Z-4.16
G1 X606.146 Y1093.788 Z-4.167
G1 X606.303 Y1093.635 Z-4.175
G1 X606.471 Y1093.493 Z-4.183
G1 X606.649 Y1093.365 Z-4.19
G1 X606.836 Y1093.249 Z-4.198
G1 X607.03 Y1093.147 Z-4.206
G1 X607.231 Y1093.06 Z-4.213
G1 X607.439 Y1092.987 Z-4.221
G1 X607.651 Y1092.93 Z-4.229
G1 X607.866 Y1092.889 Z-4.236
G1 X608.084 Y1092.863 Z-4.244
G1 X608.304 Y1092.853 Z-4.252
G1 X608.523 Y1092.859 Z-4.259
G1 X608.741 Y1092.881 Z-4.267
G1 X608.958 Y1092.919 Z-4.275
G1 X609.171 Y1092.972 Z-4.282
G1 X609.379 Y1093.041 Z-4.29
G1 X609.582 Y1093.125 Z-4.298
G1 X609.778 Y1093.223 Z-4.305
G1 X609.967 Y1093.336 Z-4.313
G1 X610.147 Y1093.461 Z-4.321
G1 X610.317 Y1093.6 Z-4.329
G1 X610.477 Y1093.75 Z-4.336
G1 X610.625 Y1093.912 Z-4.344
G1 X610.762 Y1094.084 Z-4.352
G1 X610.885 Y1094.266 Z-4.359
G1 X610.995 Y1094.456 Z-4.367
G1 X611.091 Y1094.654 Z-4.375
G1 X611.172 Y1094.858 Z-4.382
G1 X611.238 Y1095.067 Z-4.39
G1 X611.288 Y1095.281 Z-4.398
G1 X611.323 Y1095.497 Z-4.405
G1 X611.342 Y1095.716 Z-4.413
G1 X611.346 Y1095.936 Z-4.421
G1 X611.333 Y1096.155 Z-4.428
G1 X611.304 Y1096.372 Z-4.436
G1 X611.259 Y1096.587 Z-4.444
G1 X611.199 Y1096.799 Z-4.451
G1 X611.124 Y1097.005 Z-4.459
G1 X611.034 Y1097.205 Z-4.467
G1 X610.93 Y1097.398 Z-4.474
G1 X610.812 Y1097.583 Z-4.482
G1 X610.68 Y1097.759 Z-4.49
G1 X610.537 Y1097.925 Z-4.497
G1 X610.381 Y1098.08 Z-4.505
G1 X610.215 Y1098.224 Z-4.513
G1 X610.039 Y1098.354 Z-4.52
G1 X609.853 Y1098.472 Z-4.528
G1 X609.66 Y1098.576 Z-4.536
G1 X609.46 Y1098.666 Z-4.543
G1 X609.253 Y1098.74 Z-4.551
G1 X609.042 Y1098.8 Z-4.559
G1 X608.827 Y1098.844 Z-4.566
G1 X608.609 Y1098.872 Z-4.574
G1 X608.39 Y1098.885 Z-4.582
G1 X608.17 Y1098.881 Z-4.589
G1 X607.952 Y1098.861 Z-4.597
G1 X607.735 Y1098.826 Z-4.605
G1 X607.521 Y1098.775 Z-4.612
G1 X607.312 Y1098.708 Z-4.62
G1 X607.108 Y1098.627 Z-4.628
G1 X606.911 Y1098.53 Z-4.635
G1 X606.721 Y1098.42 Z-4.643
G1 X606.54 Y1098.296 Z-4.651
G1 X606.368 Y1098.16 Z-4.658
G1 X606.207 Y1098.011 Z-4.666
G1 X606.056 Y1097.851 Z-4.674
G1 X605.918 Y1097.68 Z-4.681
G1 X605.793 Y1097.5 Z-4.689
G1 X605.681 Y1097.311 Z-4.697
G1 X605.583 Y1097.115 Z-4.704
G1 X605.5 Y1096.912 Z-4.712
G1 X605.431 Y1096.703 Z-4.72
G1 X605.378 Y1096.49 Z-4.727
G1 X605.341 Y1096.274 Z-4.735
G1 X605.32 Y1096.055 Z-4.743
G1 X605.314 Y1095.836 Z-4.75
G1 X605.324 Y1095.616 Z-4.758
G1 X605.351 Y1095.398 Z-4.766
G1 X605.393 Y1095.183 Z-4.773
G1 X605.451 Y1094.971 Z-4.781
G1 X605.523 Y1094.764 Z-4.789
G1 X605.611 Y1094.563 Z-4.796
G1 X605.713 Y1094.368 Z-4.804
G1 X605.83 Y1094.182 Z-4.812
G1 X605.959 Y1094.005 Z-4.819
G1 X606.101 Y1093.837 Z-4.827
G1 X606.254 Y1093.68 Z-4.835
G1 X606.419 Y1093.535 Z-4.842
G1 X606.594 Y1093.402 Z-4.85
G1 X606.778 Y1093.283 Z-4.858
G1 X606.97 Y1093.177 Z-4.865
G1 X607.17 Y1093.085 Z-4.873
G1 X607.375 Y1093.008 Z-4.881
G1 X607.586 Y1092.946 Z-4.888
G1 X607.8 Y1092.9 Z-4.896
G1 X608.018 Y1092.869 Z-4.904
G1 X608.237 Y1092.854 Z-4.911
G1 X608.456 Y1092.855 Z-4.919
G1 X608.675 Y1092.872 Z-4.927
G1 X608.892 Y1092.906 Z-4.934
G1 X609.106 Y1092.954 Z-4.942
G1 X609.316 Y1093.018 Z-4.95
G1 X609.521 Y1093.098 Z-4.957
G1 X609.72 Y1093.192 Z-4.965
G1 X609.911 Y1093.3 Z-4.973
G1 X610.093 Y1093.422 Z-4.98
G1 X610.267 Y1093.556 Z-4.988
G1 X610.43 Y1093.703 Z-4.996
G1 X610.582 Y1093.862 Z-5.003
G1 X610.722 Y1094.031 Z-5.011
G1 X610.849 Y1094.21 Z-5.019
G1 X610.963 Y1094.397 Z-5.026
G1 X611.063 Y1094.593 Z-5.034
G1 X611.149 Y1094.795 Z-5.042
G1 X611.219 Y1095.003 Z-5.049
G1 X611.275 Y1095.215 Z-5.057
G1 X611.314 Y1095.431 Z-5.065
G1 X611.338 Y1095.649 Z-5.072
G1 X611.346 Y1095.869 Z-5.08
G3 X608.33 Y1098.885 I-3.016 J0
G3 X605.314 Y1095.869 I0 J-3.016
G3 X608.33 Y1092.853 I3.016 J0
G3 X611.346 Y1095.869 I0 J3.016
G1 X611.349 Y1096.057 F889.
G1 X611.376 Y1096.244
G1 X611.578 Y1096.969
G1 X611.627 Y1097.111
G1 X611.66 Y1097.257
G1 X611.68 Y1097.406
G1 X611.687 Y1097.56
G1 X611.681 Y1097.725
G1 X611.661 Y1097.901
G1 X611.624 Y1098.086
G1 X611.57 Y1098.279
G1 X611.496 Y1098.477
G1 X611.401 Y1098.68
G1 X611.286 Y1098.883
G1 X611.148 Y1099.086
G1 X610.987 Y1099.286
G1 X610.804 Y1099.48
G1 X610.598 Y1099.664
G1 X610.371 Y1099.838
G1 X610.123 Y1099.998
G1 X610.101 Y1100.01
G1 X609.878 Y1100.106
G1 X609.643 Y1100.165
G1 X609.402 Y1100.185
G1 X607.698
G1 X607.266 Y1100.163
G1 X606.982 Y1100.126
G1 X606.693 Y1100.064
G1 X606.402 Y1099.977
G1 X606.111 Y1099.864
G1 X605.824 Y1099.724
G1 X605.542 Y1099.559
G1 X605.27 Y1099.368
G1 X605.01 Y1099.152
G1 X604.764 Y1098.911
G1 X604.534 Y1098.649
G1 X604.446 Y1098.529
G1 X604.287 Y1098.258
G1 X604.188 Y1097.96
G1 X604.155 Y1097.647
G3 X604.812 Y1097.035 I0.635 J0.022
G3 X605.136 Y1097.137 I-0.022 J0.635
G1 X608.022 Y1099.018
G3 X608.208 Y1099.897 I-0.347 J0.532
G3 X607.698 Y1100.185 I-0.532 J-0.347
G1 X605.221
G1 X605.049 Y1100.176
G1 X604.81 Y1100.115
G1 X604.593 Y1100
G1 X604.41 Y1099.835
G1 X604.271 Y1099.632
G1 X604.184 Y1099.402
G1 X604.155 Y1099.158
G3 X604.451 Y1098.458 I1.061 J0.037
G3 X605.893 Y1098.431 I0.734 J0.708
G3 X605.92 Y1099.873 I-0.708 J0.734
G3 X605.221 Y1100.185 I-0.735 J-0.708
G1 X604.84
G1 X604.745 Y1100.182
G1 X604.65 Y1100.165
G1 X604.555 Y1100.133
G1 X604.459 Y1100.082
G1 X604.427 Y1100.059
G1 X604.334 Y1099.98
G1 X604.269 Y1099.9
G1 X604.248 Y1099.869
G1 X604.201 Y1099.774
G1 X604.171 Y1099.678
G1 X604.157 Y1099.583
G1 X604.155 Y1099.488
G1 Y1094.917
G1 X604.167 Y1094.668
G1 X604.202 Y1094.403
G1 X604.26 Y1094.132
G1 X604.342 Y1093.857
G1 X604.45 Y1093.582
G1 X604.582 Y1093.308
G1 X604.741 Y1093.04
G1 X604.924 Y1092.778
G1 X605.133 Y1092.527
G1 X605.365 Y1092.289
G1 X605.62 Y1092.066
G1 X605.897 Y1091.862
G1 X606.193 Y1091.677
G1 X606.507 Y1091.516
G1 X606.836 Y1091.378
G1 X607.179 Y1091.266
G1 X607.533 Y1091.181
G1 X607.895 Y1091.124
G1 X608.263 Y1091.097
G1 X608.635 Y1091.099
G1 X609.007 Y1091.131
G1 X609.377 Y1091.193
G1 X609.742 Y1091.285
G1 X610.101 Y1091.407
G1 X610.449 Y1091.557
G1 X610.785 Y1091.735
G1 X611.106 Y1091.941
G1 X611.411 Y1092.172
G1 X611.697 Y1092.427
G1 X611.961 Y1092.704
G1 X612.203 Y1093.003
G1 X612.245 Y1093.064
G1 X612.388 Y1093.324
G1 X612.475 Y1093.607
G1 X612.505 Y1093.902
G1 Y1098.536
G1 X612.489 Y1098.865
G1 X612.484 Y1098.896
G1 X612.414 Y1099.192
G1 X612.285 Y1099.468
G1 X612.102 Y1099.711
G1 X611.873 Y1099.911
G1 X611.608 Y1100.061
G1 X611.318 Y1100.154
G1 X611.015 Y1100.185
G3 X610.403 Y1099.528 I0.022 J-0.635
G3 X610.551 Y1099.142 I0.635 J0.022
G1 X611.384 Y1098.15
G3 X612.278 Y1098.071 I0.486 J0.408
G3 X612.505 Y1098.536 I-0.408 J0.486
G1 Y1099.488
G1 X612.503 Y1099.583
G1 X612.489 Y1099.678
G1 X612.46 Y1099.772
G1 X612.412 Y1099.869
G1 X612.353 Y1099.95
G1 X612.311 Y1099.994
G1 X612.27 Y1100.031
G1 X612.232 Y1100.059
G1 X612.156 Y1100.108
G1 X612.079 Y1100.143
G1 X611.984 Y1100.171
G1 X611.889 Y1100.184
G1 X611.508 Y1100.185
G1 X609.402
G3 X608.974 Y1099.998 I0.022 J-0.635
G1 X608.757 Y1099.781
G1 X604.558 Y1095.562
G1 X604.34 Y1095.342
G3 X604.155 Y1094.917 I0.45 J-0.448
G1 Y1092.717
G1 X604.164 Y1092.527
G1 X604.189 Y1092.341
G1 X604.231 Y1092.144
G1 X604.293 Y1091.937
G1 X604.38 Y1091.713
G1 X604.489 Y1091.49
G1 X604.627 Y1091.255
G1 X604.795 Y1091.016
G1 X604.987 Y1090.785
G1 X605.214 Y1090.552
G1 X605.475 Y1090.324
G1 X605.764 Y1090.111
G1 X606.079 Y1089.914
G1 X606.428 Y1089.734
G1 X606.808 Y1089.575
G1 X607.215 Y1089.443
G1 X607.641 Y1089.34
G1 X608.083 Y1089.271
G1 X608.541 Y1089.237
G1 X609.013 Y1089.24
G1 X609.494 Y1089.281
G1 X609.98 Y1089.363
G1 X610.466 Y1089.485
G1 X610.946 Y1089.648
G1 X611.418 Y1089.852
G1 X611.718 Y1090.011
G1 X611.983 Y1090.191
G1 X612.203 Y1090.423
G1 X612.368 Y1090.698
G1 X612.47 Y1091.001
G1 X612.505 Y1091.32
G1 Y1093.902
G3 X612.272 Y1094.371 I-0.635 J-0.022
G3 X611.766 Y1094.506 I-0.402 J-0.492
G1 X604.685 Y1093.321
G3 X604.155 Y1092.717 I0.105 J-0.626
G1 Y1090.917
G1 X604.167 Y1090.677
G1 X604.189 Y1090.507
G1 X604.231 Y1090.313
G1 X604.29 Y1090.117
G1 X604.375 Y1089.899
G1 X604.481 Y1089.679
G1 X604.618 Y1089.447
G1 X604.787 Y1089.206
G1 X604.982 Y1088.971
G1 X605.219 Y1088.728
G1 X605.489 Y1088.492
G1 X605.791 Y1088.269
G1 X606.138 Y1088.053
G1 X606.525 Y1087.854
G1 X606.937 Y1087.681
G1 X607.388 Y1087.534
G1 X607.879 Y1087.416
G1 X608.403 Y1087.334
G1 X608.949 Y1087.294
G1 X609.51 Y1087.297
G1 X610.087 Y1087.347
G1 X610.618 Y1087.436
G1 X611.083 Y1087.553
G1 X611.492 Y1087.692
G1 X611.61 Y1087.743
G1 X611.862 Y1087.881
G1 X612.081 Y1088.066
G1 X612.261 Y1088.289
G1 X612.395 Y1088.543
G1 X612.477 Y1088.818
G1 X612.505 Y1089.103
G1 Y1091.32
G3 X612.298 Y1091.767 I-0.635 J-0.022
G3 X611.834 Y1091.932 I-0.428 J-0.469
G1 X604.754 Y1091.528
G3 X604.155 Y1090.917 I0.036 J-0.634
G1 Y1089.012
G1 X604.163 Y1088.858
G1 X604.185 Y1088.685
G1 X604.227 Y1088.488
G1 X604.288 Y1088.287
G1 X604.375 Y1088.062
G1 X604.484 Y1087.837
G1 X604.629 Y1087.592
G1 X604.799 Y1087.349
G1 X605.008 Y1087.098
G1 X605.258 Y1086.842
G1 X605.538 Y1086.598
G1 X605.872 Y1086.35
G1 X606.246 Y1086.118
G1 X606.656 Y1085.906
G1 X607.122 Y1085.711
G1 X607.637 Y1085.543
G1 X608.177 Y1085.414
G1 X608.746 Y1085.325
G1 X609.335 Y1085.281
G1 X609.908 Y1085.284
G1 X610.415 Y1085.328
G1 X610.844 Y1085.4
G1 X611.254 Y1085.503
G1 X611.61 Y1085.625
G1 X611.862 Y1085.763
G1 X612.081 Y1085.948
G1 X612.261 Y1086.171
G1 X612.395 Y1086.425
G1 X612.477 Y1086.699
G1 X612.505 Y1086.985
G1 Y1089.103
G3 X611.862 Y1089.716 I-0.635 J-0.022
G1 X604.781 Y1089.625
G3 X604.155 Y1089.012 I0.008 J-0.635
G1 Y1087.107
G1 X604.162 Y1086.957
G1 X604.19 Y1086.774
G1 X604.238 Y1086.568
G1 X604.307 Y1086.355
G1 X604.404 Y1086.119
G1 X604.524 Y1085.883
G1 X604.684 Y1085.623
G1 X604.87 Y1085.369
G1 X605.105 Y1085.097
G1 X605.373 Y1084.833
G1 X605.687 Y1084.569
G1 X606.059 Y1084.305
G1 X606.461 Y1084.066
G1 X606.918 Y1083.841
G1 X607.429 Y1083.639
G1 X607.974 Y1083.473
G1 X608.536 Y1083.35
G1 X609.109 Y1083.272
G1 X609.682 Y1083.24
G1 X610.173 Y1083.252
G1 X610.63 Y1083.301
G1 X611.031 Y1083.376
G1 X611.396 Y1083.476
G1 X611.527 Y1083.523
G1 X611.799 Y1083.654
G1 X612.038 Y1083.837
G1 X612.236 Y1084.065
G1 X612.383 Y1084.329
G1 X612.474 Y1084.616
G1 X612.505 Y1084.917
G1 Y1086.985
G3 X611.881 Y1087.598 I-0.635 J-0.022
G1 X604.801 Y1087.72
G3 X604.155 Y1087.107 I-0.011 J-0.635
G1 Y1085.202
G1 X604.162 Y1085.053
G1 X604.192 Y1084.855
G1 X604.238 Y1084.653
G1 X604.311 Y1084.423
G1 X604.406 Y1084.191
G1 X604.536 Y1083.933
G1 X604.691 Y1083.678
G1 X604.894 Y1083.399
G1 X605.126 Y1083.128
G1 X605.41 Y1082.847
G1 X605.742 Y1082.566
G1 X606.108 Y1082.304
G1 X606.535 Y1082.047
G1 X607.015 Y1081.809
G1 X607.523 Y1081.606
G1 X608.06 Y1081.44
G1 X608.619 Y1081.315
G1 X609.186 Y1081.236
G1 X609.724 Y1081.204
G1 X610.218 Y1081.215
G1 X610.638 Y1081.258
G1 X611.047 Y1081.333
G1 X611.395 Y1081.427
G1 X611.521 Y1081.472
G1 X611.795 Y1081.602
G1 X612.036 Y1081.785
G1 X612.234 Y1082.014
G1 X612.383 Y1082.277
G1 X612.474 Y1082.566
G1 X612.505 Y1082.867
G1 Y1084.917
G3 X611.896 Y1085.529 I-0.635 J-0.022
G1 X604.815 Y1085.815
G3 X604.358 Y1085.646 I-0.026 J-0.635
G3 X604.155 Y1085.202 I0.432 J-0.466
G1 Y1083.298
G1 X604.164 Y1083.119
G1 X604.189 Y1082.926
G1 X604.234 Y1082.717
G1 X604.302 Y1082.492
G1 X604.396 Y1082.25
G1 X604.52 Y1081.994
G1 X604.676 Y1081.728
G1 X604.874 Y1081.446
G1 X605.104 Y1081.17
G1 X605.39 Y1080.877
G1 X605.708 Y1080.599
G1 X606.078 Y1080.325
G1 X606.507 Y1080.058
G1 X606.974 Y1079.817
G1 X607.473 Y1079.609
G1 X608.008 Y1079.434
G1 X608.559 Y1079.302
G1 X609.122 Y1079.214
G1 X609.665 Y1079.173
G1 X610.154 Y1079.176
G1 X610.579 Y1079.213
G1 X610.989 Y1079.282
G1 X611.339 Y1079.37
G1 X611.499 Y1079.424
G1 X611.778 Y1079.552
G1 X612.024 Y1079.735
G1 X612.228 Y1079.964
G1 X612.38 Y1080.231
G1 X612.473 Y1080.523
G1 X612.505 Y1080.828
G1 Y1082.867
G3 X611.909 Y1083.479 I-0.635 J-0.022
G1 X604.828 Y1083.909
G3 X604.363 Y1083.745 I-0.039 J-0.634
G3 X604.155 Y1083.298 I0.427 J-0.47
G1 Y1081.393
G1 X604.169 Y1081.122
G1 X604.195 Y1080.922
G1 X604.239 Y1080.715
G1 X604.309 Y1080.481
G1 X604.403 Y1080.241
G1 X604.531 Y1079.976
G1 X604.687 Y1079.713
G1 X604.889 Y1079.425
G1 X605.12 Y1079.146
G1 X605.404 Y1078.855
G1 X605.735 Y1078.566
G1 X606.102 Y1078.295
G1 X606.527 Y1078.03
G1 X607.003 Y1077.784
G1 X607.51 Y1077.573
G1 X608.042 Y1077.399
G1 X608.591 Y1077.267
G1 X609.149 Y1077.18
G1 X609.676 Y1077.141
G1 X610.169 Y1077.144
G1 X610.586 Y1077.18
G1 X610.996 Y1077.248
G1 X611.344 Y1077.336
G1 X611.499 Y1077.389
G1 X611.778 Y1077.517
G1 X612.024 Y1077.699
G1 X612.228 Y1077.929
G1 X612.38 Y1078.195
G1 X612.473 Y1078.487
G1 X612.505 Y1078.792
G1 Y1080.828
G3 X611.921 Y1081.438 I-0.635 J-0.022
G1 X604.84 Y1082.004
G3 X604.367 Y1081.845 I-0.051 J-0.633
G3 X604.155 Y1081.393 I0.423 J-0.474
G1 Y1079.298
G1 X604.164 Y1079.112
G1 X604.19 Y1078.912
G1 X604.236 Y1078.702
G1 X604.306 Y1078.468
G1 X604.4 Y1078.225
G1 X604.529 Y1077.959
G1 X604.687 Y1077.692
G1 X604.891 Y1077.401
G1 X605.123 Y1077.121
G1 X605.411 Y1076.826
G1 X605.742 Y1076.537
G1 X606.112 Y1076.264
G1 X606.54 Y1075.997
G1 X607.016 Y1075.752
G1 X607.522 Y1075.54
G1 X608.055 Y1075.366
G1 X608.603 Y1075.235
G1 X609.159 Y1075.148
G1 X609.683 Y1075.109
G1 X610.175 Y1075.111
G1 X610.59 Y1075.147
G1 X610.999 Y1075.216
G1 X611.346 Y1075.303
G1 X611.499 Y1075.355
G1 X611.778 Y1075.483
G1 X612.024 Y1075.666
G1 X612.228 Y1075.895
G1 X612.38 Y1076.162
G1 X612.473 Y1076.454
G1 X612.505 Y1076.759
G1 Y1078.792
G3 X611.916 Y1079.403 I-0.635 J-0.022
G1 X604.835 Y1079.909
G3 X604.365 Y1079.748 I-0.045 J-0.633
G3 X604.155 Y1079.298 I0.425 J-0.472
G1 Y1077.203
G1 X604.162 Y1077.053
G1 X604.193 Y1076.846
G1 X604.243 Y1076.633
G1 X604.32 Y1076.391
G1 X604.42 Y1076.147
G1 X604.558 Y1075.874
G1 X604.722 Y1075.606
G1 X604.936 Y1075.313
G1 X605.181 Y1075.028
G1 X605.475 Y1074.737
G1 X605.823 Y1074.443
G1 X606.204 Y1074.172
G1 X606.638 Y1073.912
G1 X607.12 Y1073.674
G1 X607.639 Y1073.468
G1 X608.177 Y1073.302
G1 X608.729 Y1073.18
G1 X609.282 Y1073.104
G1 X609.79 Y1073.074
G1 X610.276 Y1073.086
G1 X610.682 Y1073.128
G1 X611.081 Y1073.202
G1 X611.424 Y1073.295
G1 X611.524 Y1073.331
G1 X611.796 Y1073.461
G1 X612.037 Y1073.644
G1 X612.235 Y1073.873
G1 X612.383 Y1074.136
G1 X612.474 Y1074.425
G1 X612.505 Y1074.725
G1 Y1076.759
G3 X611.91 Y1077.37 I-0.635 J-0.022
G1 X604.829 Y1077.814
G3 X604.363 Y1077.651 I-0.04 J-0.634
G3 X604.155 Y1077.203 I0.427 J-0.47
G1 Y1075.298
G1 X604.167 Y1075.053
G1 X604.193 Y1074.86
G1 X604.24 Y1074.64
G1 X604.307 Y1074.415
G1 X604.406 Y1074.161
G1 X604.53 Y1073.906
G1 X604.693 Y1073.628
G1 X604.891 Y1073.347
G1 X605.13 Y1073.059
G1 X605.421 Y1072.761
G1 X605.743 Y1072.48
G1 X606.122 Y1072.199
G1 X606.556 Y1071.929
G1 X607.023 Y1071.688
G1 X607.523 Y1071.479
G1 X608.058 Y1071.305
G1 X608.606 Y1071.173
G1 X609.165 Y1071.086
G1 X609.698 Y1071.046
G1 X610.181 Y1071.049
G1 X610.598 Y1071.085
G1 X611.003 Y1071.153
G1 X611.35 Y1071.24
G1 X611.499 Y1071.291
G1 X611.778 Y1071.419
G1 X612.024 Y1071.602
G1 X612.228 Y1071.831
G1 X612.38 Y1072.097
G1 X612.473 Y1072.389
G1 X612.505 Y1072.694
G1 Y1074.725
G3 X611.922 Y1075.336 I-0.635 J-0.022
G1 X604.841 Y1075.909
G3 X604.367 Y1075.75 I-0.051 J-0.633
G3 X604.155 Y1075.298 I0.422 J-0.474
G1 Y1073.203
G1 X604.164 Y1073.033
G1 X604.19 Y1072.833
G1 X604.235 Y1072.619
G1 X604.305 Y1072.385
G1 X604.402 Y1072.138
G1 X604.53 Y1071.873
G1 X604.689 Y1071.603
G1 X604.894 Y1071.312
G1 X605.127 Y1071.031
G1 X605.416 Y1070.735
G1 X605.748 Y1070.445
G1 X606.119 Y1070.171
G1 X606.548 Y1069.904
G1 X607.026 Y1069.657
G1 X607.533 Y1069.445
G1 X608.065 Y1069.271
G1 X608.613 Y1069.14
G1 X609.169 Y1069.053
G1 X609.691 Y1069.014
G1 X610.181 Y1069.017
G1 X610.595 Y1069.053
G1 X611.002 Y1069.121
G1 X611.349 Y1069.208
G1 X611.499 Y1069.26
G1 X611.778 Y1069.388
G1 X612.024 Y1069.57
G1 X612.228 Y1069.8
G1 X612.38 Y1070.066
G1 X612.473 Y1070.358
G1 X612.505 Y1070.663
G1 Y1072.694
G3 X611.916 Y1073.305 I-0.635 J-0.022
G1 X604.835 Y1073.814
G3 X604.365 Y1073.653 I-0.045 J-0.633
G3 X604.155 Y1073.203 I0.424 J-0.472
G1 Y1071.193
G1 X604.165 Y1071.001
G1 X604.191 Y1070.801
G1 X604.236 Y1070.588
G1 X604.306 Y1070.354
G1 X604.402 Y1070.108
G1 X604.531 Y1069.843
G1 X604.69 Y1069.573
G1 X604.895 Y1069.281
G1 X605.129 Y1068.999
G1 X605.418 Y1068.703
G1 X605.75 Y1068.413
G1 X606.121 Y1068.138
G1 X606.551 Y1067.871
G1 X607.027 Y1067.625
G1 X607.534 Y1067.413
G1 X608.066 Y1067.24
G1 X608.614 Y1067.108
G1 X609.169 Y1067.022
G1 X609.691 Y1066.983
G1 X610.18 Y1066.985
G1 X610.594 Y1067.021
G1 X611.002 Y1067.09
G1 X611.349 Y1067.177
G1 X611.499 Y1067.228
G1 X611.778 Y1067.356
G1 X612.024 Y1067.539
G1 X612.228 Y1067.768
G1 X612.38 Y1068.034
G1 X612.473 Y1068.326
G1 X612.505 Y1068.631
G1 Y1070.663
G3 X611.918 Y1071.274 I-0.635 J-0.022
G1 X604.837 Y1071.804
G3 X604.366 Y1071.644 I-0.047 J-0.633
G3 X604.155 Y1071.193 I0.424 J-0.473
G1 Y1069.203
G1 X604.167 Y1068.969
G1 X604.193 Y1068.769
G1 X604.238 Y1068.556
G1 X604.309 Y1068.322
G1 X604.404 Y1068.076
G1 X604.533 Y1067.81
G1 X604.692 Y1067.54
G1 X604.897 Y1067.249
G1 X605.131 Y1066.967
G1 X605.42 Y1066.671
G1 X605.752 Y1066.381
G1 X606.123 Y1066.106
G1 X606.553 Y1065.839
G1 X607.029 Y1065.594
G1 X607.535 Y1065.382
G1 X608.067 Y1065.208
G1 X608.614 Y1065.077
G1 X609.17 Y1064.99
G1 X609.691 Y1064.951
G1 X610.181 Y1064.954
G1 X610.595 Y1064.99
G1 X611.003 Y1065.058
G1 X611.349 Y1065.146
G1 X611.499 Y1065.197
G1 X611.778 Y1065.325
G1 X612.024 Y1065.507
G1 X612.228 Y1065.737
G1 X612.38 Y1066.003
G1 X612.473 Y1066.295
G1 X612.505 Y1066.6
G1 Y1068.631
G3 X611.921 Y1069.242 I-0.635 J-0.022
G1 X604.841 Y1069.813
G3 X604.367 Y1069.655 I-0.051 J-0.633
G3 X604.155 Y1069.203 I0.422 J-0.474
G1 Y1067.108
G1 X604.163 Y1066.941
G1 X604.19 Y1066.74
G1 X604.235 Y1066.527
G1 X604.305 Y1066.293
G1 X604.401 Y1066.047
G1 X604.53 Y1065.781
G1 X604.69 Y1065.51
G1 X604.894 Y1065.219
G1 X605.128 Y1064.937
G1 X605.418 Y1064.64
G1 X605.75 Y1064.35
G1 X606.122 Y1064.075
G1 X606.552 Y1063.808
G1 X607.028 Y1063.562
G1 X607.534 Y1063.35
G1 X608.066 Y1063.177
G1 X608.614 Y1063.045
G1 X609.169 Y1062.959
G1 X609.691 Y1062.92
G1 X610.181 Y1062.922
G1 X610.595 Y1062.958
G1 X611.002 Y1063.027
G1 X611.349 Y1063.114
G1 X611.499 Y1063.165
G1 X611.778 Y1063.293
G1 X612.024 Y1063.476
G1 X612.228 Y1063.705
G1 X612.38 Y1063.971
G1 X612.473 Y1064.263
G1 X612.505 Y1064.568
G1 Y1066.6
G3 X611.916 Y1067.211 I-0.635 J-0.022
G1 X604.835 Y1067.719
G3 X604.365 Y1067.558 I-0.045 J-0.633
G3 X604.155 Y1067.108 I0.424 J-0.472
G1 Y1065.098
G1 X604.165 Y1064.907
G1 X604.191 Y1064.707
G1 X604.236 Y1064.494
G1 X604.306 Y1064.26
G1 X604.402 Y1064.014
G1 X604.531 Y1063.749
G1 X604.69 Y1063.478
G1 X604.895 Y1063.187
G1 X605.129 Y1062.905
G1 X605.419 Y1062.608
G1 X605.75 Y1062.319
G1 X606.122 Y1062.044
G1 X606.552 Y1061.776
G1 X607.028 Y1061.531
G1 X607.534 Y1061.319
G1 X608.066 Y1061.145
G1 X608.614 Y1061.014
G1 X609.169 Y1060.927
G1 X609.691 Y1060.888
G1 X610.181 Y1060.891
G1 X610.595 Y1060.927
G1 X611.002 Y1060.995
G1 X611.349 Y1061.083
G1 X611.499 Y1061.134
G1 X611.778 Y1061.262
G1 X612.024 Y1061.444
G1 X612.228 Y1061.674
G1 X612.38 Y1061.94
G1 X612.473 Y1062.232
G1 X612.505 Y1062.537
G1 Y1064.568
G3 X611.918 Y1065.179 I-0.635 J-0.022
G1 X604.837 Y1065.709
G3 X604.366 Y1065.549 I-0.047 J-0.633
G3 X604.155 Y1065.098 I0.424 J-0.473
G1 Y1063.108
G1 X604.167 Y1062.875
G1 X604.193 Y1062.674
G1 X604.238 Y1062.462
G1 X604.309 Y1062.228
G1 X604.404 Y1061.982
G1 X604.533 Y1061.716
G1 X604.692 Y1061.446
G1 X604.897 Y1061.155
G1 X605.131 Y1060.873
G1 X605.42 Y1060.576
G1 X605.752 Y1060.287
G1 X606.123 Y1060.012
G1 X606.553 Y1059.745
G1 X607.029 Y1059.499
G1 X607.535 Y1059.287
G1 X608.067 Y1059.114
G1 X608.614 Y1058.983
G1 X609.17 Y1058.896
G1 X609.691 Y1058.857
G1 X610.181 Y1058.86
G1 X610.595 Y1058.895
G1 X611.003 Y1058.964
G1 X611.349 Y1059.051
G1 X611.499 Y1059.102
G1 X611.778 Y1059.23
G1 X612.024 Y1059.413
G1 X612.228 Y1059.642
G1 X612.38 Y1059.908
G1 X612.473 Y1060.2
G1 X612.505 Y1060.505
G1 Y1062.537
G3 X611.921 Y1063.147 I-0.635 J-0.022
G1 X604.841 Y1063.718
G3 X604.367 Y1063.56 I-0.051 J-0.633
G3 X604.155 Y1063.108 I0.422 J-0.474
G1 Y1061.012
G1 X604.163 Y1060.846
G1 X604.19 Y1060.646
G1 X604.235 Y1060.433
G1 X604.305 Y1060.199
G1 X604.401 Y1059.952
G1 X604.53 Y1059.687
G1 X604.69 Y1059.416
G1 X604.894 Y1059.125
G1 X605.128 Y1058.842
G1 X605.418 Y1058.545
G1 X605.75 Y1058.256
G1 X606.122 Y1057.981
G1 X606.552 Y1057.713
G1 X607.028 Y1057.468
G1 X607.534 Y1057.256
G1 X608.066 Y1057.082
G1 X608.614 Y1056.951
G1 X609.169 Y1056.864
G1 X609.691 Y1056.825
G1 X610.181 Y1056.828
G1 X610.595 Y1056.864
G1 X611.002 Y1056.932
G1 X611.349 Y1057.02
G1 X611.499 Y1057.071
G1 X611.778 Y1057.199
G1 X612.024 Y1057.381
G1 X612.228 Y1057.611
G1 X612.38 Y1057.877
G1 X612.473 Y1058.169
G1 X612.505 Y1058.474
G1 Y1060.505
G3 X611.916 Y1061.116 I-0.635 J-0.022
G1 X604.835 Y1061.624
G3 X604.365 Y1061.462 I-0.045 J-0.633
G3 X604.155 Y1061.012 I0.424 J-0.472
G1 Y1059.003
G1 X604.164 Y1058.813
G1 X604.191 Y1058.613
G1 X604.236 Y1058.4
G1 X604.306 Y1058.166
G1 X604.402 Y1057.92
G1 X604.531 Y1057.654
G1 X604.69 Y1057.384
G1 X604.895 Y1057.093
G1 X605.129 Y1056.81
G1 X605.419 Y1056.514
G1 X605.75 Y1056.224
G1 X606.122 Y1055.949
G1 X606.552 Y1055.682
G1 X607.028 Y1055.436
G1 X607.534 Y1055.224
G1 X608.066 Y1055.051
G1 X608.614 Y1054.92
G1 X609.169 Y1054.833
G1 X609.691 Y1054.794
G1 X610.181 Y1054.797
G1 X610.595 Y1054.832
G1 X611.002 Y1054.901
G1 X611.349 Y1054.988
G1 X611.499 Y1055.039
G1 X611.778 Y1055.167
G1 X612.024 Y1055.35
G1 X612.228 Y1055.579
G1 X612.38 Y1055.845
G1 X612.473 Y1056.137
G1 X612.505 Y1056.442
G1 Y1058.474
G3 X611.918 Y1059.085 I-0.635 J-0.022
G1 X604.837 Y1059.614
G3 X604.366 Y1059.454 I-0.047 J-0.633
G3 X604.155 Y1059.003 I0.424 J-0.473
G1 Y1057.012
G1 X604.167 Y1056.78
G1 X604.193 Y1056.58
G1 X604.238 Y1056.367
G1 X604.308 Y1056.133
G1 X604.404 Y1055.887
G1 X604.533 Y1055.622
G1 X604.692 Y1055.352
G1 X604.897 Y1055.06
G1 X605.131 Y1054.778
G1 X605.42 Y1054.482
G1 X605.752 Y1054.193
G1 X606.123 Y1053.918
G1 X606.553 Y1053.65
G1 X607.029 Y1053.405
G1 X607.535 Y1053.193
G1 X608.067 Y1053.019
G1 X608.614 Y1052.888
G1 X609.17 Y1052.801
G1 X609.691 Y1052.762
G1 X610.181 Y1052.765
G1 X610.595 Y1052.801
G1 X611.003 Y1052.87
G1 X611.349 Y1052.957
G1 X611.499 Y1053.008
G1 X611.778 Y1053.136
G1 X612.024 Y1053.318
G1 X612.228 Y1053.548
G1 X612.38 Y1053.814
G1 X612.473 Y1054.106
G1 X612.505 Y1054.411
G1 Y1056.442
G3 X611.921 Y1057.053 I-0.635 J-0.022
G1 X604.841 Y1057.623
G3 X604.367 Y1057.464 I-0.051 J-0.633
G3 X604.155 Y1057.012 I0.422 J-0.474
G1 Y1054.917
G1 X604.163 Y1054.752
G1 X604.19 Y1054.552
G1 X604.235 Y1054.338
G1 X604.305 Y1054.104
G1 X604.401 Y1053.858
G1 X604.53 Y1053.592
G1 X604.689 Y1053.322
G1 X604.894 Y1053.03
G1 X605.128 Y1052.748
G1 X605.418 Y1052.451
G1 X605.75 Y1052.162
G1 X606.122 Y1051.887
G1 X606.552 Y1051.619
G1 X607.028 Y1051.373
G1 X607.534 Y1051.161
G1 X608.066 Y1050.988
G1 X608.614 Y1050.857
G1 X609.169 Y1050.77
G1 X609.691 Y1050.731
G1 X610.181 Y1050.734
G1 X610.595 Y1050.769
G1 X611.002 Y1050.838
G1 X611.349 Y1050.925
G1 X611.499 Y1050.976
G1 X611.778 Y1051.104
G1 X612.024 Y1051.287
G1 X612.228 Y1051.516
G1 X612.38 Y1051.783
G1 X612.473 Y1052.074
G1 X612.505 Y1052.379
G1 Y1054.411
G3 X611.916 Y1055.022 I-0.635 J-0.022
G1 X604.835 Y1055.528
G3 X604.365 Y1055.367 I-0.045 J-0.633
G3 X604.155 Y1054.917 I0.425 J-0.472
G1 Y1052.908
G1 X604.164 Y1052.719
G1 X604.191 Y1052.519
G1 X604.236 Y1052.306
G1 X604.306 Y1052.072
G1 X604.402 Y1051.825
G1 X604.531 Y1051.56
G1 X604.69 Y1051.289
G1 X604.895 Y1050.998
G1 X605.129 Y1050.716
G1 X605.419 Y1050.419
G1 X605.75 Y1050.13
G1 X606.122 Y1049.855
G1 X606.552 Y1049.587
G1 X607.028 Y1049.342
G1 X607.534 Y1049.13
G1 X608.066 Y1048.956
G1 X608.614 Y1048.825
G1 X609.169 Y1048.738
G1 X609.691 Y1048.699
G1 X610.181 Y1048.702
G1 X610.595 Y1048.738
G1 X611.002 Y1048.806
G1 X611.349 Y1048.894
G1 X611.499 Y1048.945
G1 X611.778 Y1049.073
G1 X612.024 Y1049.255
G1 X612.228 Y1049.485
G1 X612.38 Y1049.751
G1 X612.473 Y1050.043
G1 X612.505 Y1050.348
G1 Y1052.379
G3 X611.918 Y1052.99 I-0.635 J-0.022
G1 X604.837 Y1053.519
G3 X604.366 Y1053.358 I-0.047 J-0.633
G3 X604.155 Y1052.908 I0.424 J-0.473
G1 Y1050.917
G1 X604.167 Y1050.686
G1 X604.193 Y1050.486
G1 X604.238 Y1050.273
G1 X604.308 Y1050.039
G1 X604.404 Y1049.793
G1 X604.533 Y1049.527
G1 X604.692 Y1049.257
G1 X604.897 Y1048.966
G1 X605.131 Y1048.684
G1 X605.42 Y1048.387
G1 X605.752 Y1048.098
G1 X606.123 Y1047.823
G1 X606.553 Y1047.556
G1 X607.029 Y1047.31
G1 X607.535 Y1047.099
G1 X608.067 Y1046.925
G1 X608.614 Y1046.794
G1 X609.17 Y1046.707
G1 X609.691 Y1046.668
G1 X610.181 Y1046.671
G1 X610.595 Y1046.707
G1 X611.003 Y1046.775
G1 X611.349 Y1046.862
G1 X611.499 Y1046.913
G1 X611.778 Y1047.041
G1 X612.024 Y1047.224
G1 X612.228 Y1047.453
G1 X612.38 Y1047.72
G1 X612.473 Y1048.011
G1 X612.505 Y1048.316
G1 Y1050.348
G3 X611.921 Y1050.959 I-0.635 J-0.022
G1 X604.841 Y1051.528
G3 X604.367 Y1051.369 I-0.051 J-0.633
G3 X604.155 Y1050.917 I0.422 J-0.474
G1 Y1048.822
G1 X604.163 Y1048.657
G1 X604.19 Y1048.457
G1 X604.235 Y1048.244
G1 X604.305 Y1048.01
G1 X604.401 Y1047.763
G1 X604.53 Y1047.498
G1 X604.689 Y1047.227
G1 X604.894 Y1046.936
G1 X605.128 Y1046.654
G1 X605.418 Y1046.357
G1 X605.75 Y1046.067
G1 X606.122 Y1045.792
G1 X606.552 Y1045.525
G1 X607.028 Y1045.279
G1 X607.534 Y1045.067
G1 X608.066 Y1044.893
G1 X608.614 Y1044.762
G1 X609.169 Y1044.675
G1 X609.691 Y1044.636
G1 X610.181 Y1044.639
G1 X610.595 Y1044.675
G1 X611.002 Y1044.744
G1 X611.349 Y1044.831
G1 X611.499 Y1044.882
G1 X611.778 Y1045.01
G1 X612.024 Y1045.193
G1 X612.228 Y1045.422
G1 X612.38 Y1045.688
G1 X612.473 Y1045.98
G1 X612.505 Y1046.285
G1 Y1048.316
G3 X611.916 Y1048.928 I-0.635 J-0.022
G1 X604.835 Y1049.433
G3 X604.365 Y1049.272 I-0.045 J-0.633
G3 X604.155 Y1048.822 I0.425 J-0.472
G1 Y1046.813
G1 X604.164 Y1046.624
G1 X604.191 Y1046.424
G1 X604.236 Y1046.211
G1 X604.306 Y1045.977
G1 X604.402 Y1045.731
G1 X604.531 Y1045.465
G1 X604.69 Y1045.195
G1 X604.895 Y1044.904
G1 X605.129 Y1044.622
G1 X605.419 Y1044.325
G1 X605.75 Y1044.036
G1 X606.122 Y1043.76
G1 X606.552 Y1043.493
G1 X607.028 Y1043.247
G1 X607.534 Y1043.036
G1 X608.066 Y1042.862
G1 X608.614 Y1042.731
G1 X609.169 Y1042.644
G1 X609.691 Y1042.605
G1 X610.18 Y1042.608
G1 X610.595 Y1042.643
G1 X611.002 Y1042.712
G1 X611.349 Y1042.799
G1 X611.499 Y1042.85
G1 X611.778 Y1042.978
G1 X612.024 Y1043.161
G1 X612.228 Y1043.39
G1 X612.38 Y1043.657
G1 X612.473 Y1043.948
G1 X612.505 Y1044.253
G1 Y1046.285
G3 X611.918 Y1046.896 I-0.635 J-0.022
G1 X604.837 Y1047.424
G3 X604.366 Y1047.263 I-0.047 J-0.633
G3 X604.155 Y1046.813 I0.424 J-0.473
G1 Y1044.822
G1 X604.167 Y1044.591
G1 X604.193 Y1044.391
G1 X604.238 Y1044.178
G1 X604.308 Y1043.944
G1 X604.404 Y1043.698
G1 X604.533 Y1043.433
G1 X604.692 Y1043.163
G1 X604.897 Y1042.871
G1 X605.131 Y1042.59
G1 X605.42 Y1042.293
G1 X605.752 Y1042.004
G1 X606.123 Y1041.729
G1 X606.553 Y1041.461
G1 X607.029 Y1041.216
G1 X607.535 Y1041.004
G1 X608.067 Y1040.83
G1 X608.614 Y1040.699
G1 X609.17 Y1040.613
G1 X609.691 Y1040.574
G1 X610.181 Y1040.576
G1 X610.595 Y1040.612
G1 X611.003 Y1040.681
G1 X611.349 Y1040.768
G1 X611.499 Y1040.819
G1 X611.778 Y1040.947
G1 X612.024 Y1041.13
G1 X612.228 Y1041.359
G1 X612.38 Y1041.625
G1 X612.473 Y1041.917
G1 X612.505 Y1042.222
G1 Y1044.253
G3 X611.921 Y1044.864 I-0.635 J-0.022
G1 X604.84 Y1045.433
G3 X604.367 Y1045.274 I-0.051 J-0.633
G3 X604.155 Y1044.822 I0.422 J-0.474
G1 Y1042.727
G1 X604.163 Y1042.563
G1 X604.189 Y1042.363
G1 X604.235 Y1042.149
G1 X604.305 Y1041.915
G1 X604.401 Y1041.669
G1 X604.53 Y1041.403
G1 X604.689 Y1041.133
G1 X604.894 Y1040.841
G1 X605.128 Y1040.559
G1 X605.418 Y1040.262
G1 X605.75 Y1039.973
G1 X606.122 Y1039.698
G1 X606.552 Y1039.43
G1 X607.028 Y1039.185
G1 X607.534 Y1038.973
G1 X608.066 Y1038.799
G1 X608.614 Y1038.668
G1 X609.169 Y1038.581
G1 X609.691 Y1038.542
G1 X610.181 Y1038.545
G1 X610.595 Y1038.581
G1 X611.002 Y1038.649
G1 X611.349 Y1038.736
G1 X611.499 Y1038.787
G1 X611.778 Y1038.915
G1 X612.024 Y1039.098
G1 X612.228 Y1039.327
G1 X612.38 Y1039.594
G1 X612.473 Y1039.886
G1 X612.505 Y1040.191
G1 Y1042.222
G3 X611.916 Y1042.833 I-0.635 J-0.022
G1 X604.835 Y1043.338
G3 X604.365 Y1043.177 I-0.045 J-0.633
G3 X604.155 Y1042.727 I0.425 J-0.472
G1 Y1040.718
G1 X604.164 Y1040.53
G1 X604.191 Y1040.33
G1 X604.236 Y1040.117
G1 X604.306 Y1039.883
G1 X604.402 Y1039.637
G1 X604.531 Y1039.371
G1 X604.69 Y1039.101
G1 X604.895 Y1038.809
G1 X605.129 Y1038.527
G1 X605.419 Y1038.23
G1 X605.75 Y1037.941
G1 X606.122 Y1037.666
G1 X606.552 Y1037.399
G1 X607.028 Y1037.153
G1 X607.534 Y1036.941
G1 X608.066 Y1036.767
G1 X608.614 Y1036.636
G1 X609.169 Y1036.549
G1 X609.691 Y1036.51
G1 X610.18 Y1036.513
G1 X610.595 Y1036.549
G1 X611.002 Y1036.618
G1 X611.349 Y1036.705
G1 X611.499 Y1036.756
G1 X611.778 Y1036.884
G1 X612.024 Y1037.067
G1 X612.228 Y1037.296
G1 X612.38 Y1037.562
G1 X612.473 Y1037.854
G1 X612.505 Y1038.159
G1 Y1040.191
G3 X611.918 Y1040.802 I-0.635 J-0.022
G1 X604.837 Y1041.329
G3 X604.366 Y1041.168 I-0.047 J-0.633
G3 X604.155 Y1040.718 I0.424 J-0.473
G1 Y1038.727
G1 X604.167 Y1038.497
G1 X604.193 Y1038.297
G1 X604.238 Y1038.084
G1 X604.308 Y1037.85
G1 X604.404 Y1037.604
G1 X604.533 Y1037.339
G1 X604.692 Y1037.068
G1 X604.897 Y1036.777
G1 X605.131 Y1036.495
G1 X605.42 Y1036.199
G1 X605.752 Y1035.909
G1 X606.123 Y1035.634
G1 X606.553 Y1035.367
G1 X607.029 Y1035.121
G1 X607.535 Y1034.91
G1 X608.067 Y1034.736
G1 X608.614 Y1034.605
G1 X609.17 Y1034.518
G1 X609.691 Y1034.479
G1 X610.181 Y1034.482
G1 X610.595 Y1034.518
G1 X611.003 Y1034.586
G1 X611.349 Y1034.673
G1 X611.499 Y1034.724
G1 X611.778 Y1034.853
G1 X612.024 Y1035.035
G1 X612.228 Y1035.264
G1 X612.38 Y1035.531
G1 X612.473 Y1035.823
G1 X612.505 Y1036.128
G1 Y1038.159
G3 X611.921 Y1038.77 I-0.635 J-0.022
G1 X604.84 Y1039.338
G3 X604.367 Y1039.179 I-0.051 J-0.633
G3 X604.155 Y1038.727 I0.422 J-0.474
G1 Y1036.632
G1 X604.163 Y1036.469
G1 X604.189 Y1036.268
G1 X604.235 Y1036.055
G1 X604.305 Y1035.821
G1 X604.401 Y1035.575
G1 X604.53 Y1035.309
G1 X604.689 Y1035.038
G1 X604.894 Y1034.747
G1 X605.128 Y1034.465
G1 X605.418 Y1034.168
G1 X605.75 Y1033.878
G1 X606.121 Y1033.603
G1 X606.552 Y1033.336
G1 X607.028 Y1033.09
G1 X607.534 Y1032.878
G1 X608.066 Y1032.705
G1 X608.614 Y1032.573
G1 X609.169 Y1032.487
G1 X609.691 Y1032.448
G1 X610.18 Y1032.45
G1 X610.595 Y1032.486
G1 X611.002 Y1032.555
G1 X611.349 Y1032.642
G1 X611.499 Y1032.693
G1 X611.778 Y1032.821
G1 X612.024 Y1033.004
G1 X612.228 Y1033.233
G1 X612.38 Y1033.499
G1 X612.473 Y1033.791
G1 X612.505 Y1034.096
G1 Y1036.128
G3 X611.916 Y1036.739 I-0.635 J-0.022
G1 X604.835 Y1037.243
G3 X604.365 Y1037.082 I-0.045 J-0.633
G3 X604.155 Y1036.632 I0.425 J-0.472
G1 Y1034.622
G1 X604.164 Y1034.435
G1 X604.191 Y1034.235
G1 X604.236 Y1034.022
G1 X604.306 Y1033.788
G1 X604.402 Y1033.542
G1 X604.531 Y1033.276
G1 X604.69 Y1033.006
G1 X604.895 Y1032.715
G1 X605.129 Y1032.433
G1 X605.419 Y1032.136
G1 X605.75 Y1031.847
G1 X606.122 Y1031.572
G1 X606.552 Y1031.304
G1 X607.028 Y1031.059
G1 X607.534 Y1030.847
G1 X608.066 Y1030.673
G1 X608.614 Y1030.542
G1 X609.169 Y1030.455
G1 X609.691 Y1030.416
G1 X610.18 Y1030.419
G1 X610.595 Y1030.455
G1 X611.002 Y1030.523
G1 X611.349 Y1030.61
G1 X611.499 Y1030.661
G1 X611.778 Y1030.789
G1 X612.024 Y1030.972
G1 X612.228 Y1031.201
G1 X612.38 Y1031.468
G1 X612.473 Y1031.76
G1 X612.505 Y1032.065
G1 Y1034.096
G3 X611.917 Y1034.707 I-0.635 J-0.022
G1 X604.837 Y1035.234
G3 X604.366 Y1035.073 I-0.047 J-0.633
G3 X604.155 Y1034.622 I0.424 J-0.473
G1 Y1032.632
G1 X604.167 Y1032.402
G1 X604.193 Y1032.202
G1 X604.238 Y1031.99
G1 X604.308 Y1031.755
G1 X604.404 Y1031.51
G1 X604.533 Y1031.244
G1 X604.692 Y1030.974
G1 X604.897 Y1030.683
G1 X605.131 Y1030.401
G1 X605.42 Y1030.104
G1 X605.752 Y1029.815
G1 X606.123 Y1029.54
G1 X606.553 Y1029.273
G1 X607.029 Y1029.027
G1 X607.535 Y1028.815
G1 X608.067 Y1028.642
G1 X608.614 Y1028.51
G1 X609.17 Y1028.424
G1 X609.691 Y1028.385
G1 X610.181 Y1028.387
G1 X610.595 Y1028.423
G1 X611.003 Y1028.492
G1 X611.349 Y1028.579
G1 X611.499 Y1028.63
G1 X611.778 Y1028.758
G1 X612.024 Y1028.941
G1 X612.228 Y1029.17
G1 X612.38 Y1029.436
G1 X612.473 Y1029.728
G1 X612.505 Y1030.033
G1 Y1032.065
G3 X611.921 Y1032.675 I-0.635 J-0.022
G1 X604.84 Y1033.243
G3 X604.367 Y1033.084 I-0.051 J-0.633
G3 X604.155 Y1032.632 I0.422 J-0.474
G1 Y1030.537
G1 X604.163 Y1030.374
G1 X604.189 Y1030.174
G1 X604.235 Y1029.961
G1 X604.305 Y1029.727
G1 X604.401 Y1029.48
G1 X604.53 Y1029.214
G1 X604.689 Y1028.944
G1 X604.894 Y1028.652
G1 X605.128 Y1028.37
G1 X605.418 Y1028.073
G1 X605.75 Y1027.784
G1 X606.121 Y1027.509
G1 X606.551 Y1027.241
G1 X607.028 Y1026.996
G1 X607.534 Y1026.784
G1 X608.066 Y1026.61
G1 X608.614 Y1026.479
G1 X609.169 Y1026.392
G1 X609.691 Y1026.353
G1 X610.18 Y1026.356
G1 X610.595 Y1026.392
G1 X611.002 Y1026.46
G1 X611.349 Y1026.547
G1 X611.499 Y1026.599
G1 X611.778 Y1026.727
G1 X612.024 Y1026.909
G1 X612.228 Y1027.139
G1 X612.38 Y1027.405
G1 X612.473 Y1027.697
G1 X612.505 Y1028.002
G1 Y1030.033
G3 X611.915 Y1030.644 I-0.635 J-0.022
G1 X604.835 Y1031.148
G3 X604.365 Y1030.987 I-0.045 J-0.633
G3 X604.155 Y1030.537 I0.425 J-0.472
G1 Y1028.527
G1 X604.164 Y1028.341
G1 X604.191 Y1028.141
G1 X604.236 Y1027.928
G1 X604.306 Y1027.694
G1 X604.402 Y1027.448
G1 X604.531 Y1027.182
G1 X604.69 Y1026.912
G1 X604.895 Y1026.62
G1 X605.129 Y1026.338
G1 X605.418 Y1026.042
G1 X605.75 Y1025.752
G1 X606.122 Y1025.477
G1 X606.552 Y1025.21
G1 X607.028 Y1024.964
G1 X607.534 Y1024.752
G1 X608.066 Y1024.579
G1 X608.614 Y1024.447
G1 X609.169 Y1024.361
G1 X609.691 Y1024.322
G1 X610.18 Y1024.324
G1 X610.595 Y1024.36
G1 X611.002 Y1024.429
G1 X611.349 Y1024.516
G1 X611.499 Y1024.567
G1 X611.778 Y1024.695
G1 X612.024 Y1024.878
G1 X612.228 Y1025.107
G1 X612.38 Y1025.373
G1 X612.473 Y1025.665
G1 X612.505 Y1025.97
G1 Y1028.002
G3 X611.917 Y1028.613 I-0.635 J-0.022
G1 X604.837 Y1029.138
G3 X604.366 Y1028.978 I-0.047 J-0.633
G3 X604.155 Y1028.527 I0.424 J-0.473
G1 Y1026.537
G1 X604.166 Y1026.308
G1 X604.193 Y1026.108
G1 X604.238 Y1025.895
G1 X604.308 Y1025.661
G1 X604.404 Y1025.415
G1 X604.533 Y1025.15
G1 X604.692 Y1024.879
G1 X604.897 Y1024.588
G1 X605.131 Y1024.306
G1 X605.42 Y1024.01
G1 X605.752 Y1023.72
G1 X606.123 Y1023.445
G1 X606.553 Y1023.178
G1 X607.029 Y1022.933
G1 X607.535 Y1022.721
G1 X608.067 Y1022.547
G1 X608.614 Y1022.416
G1 X609.17 Y1022.329
G1 X609.691 Y1022.29
G1 X610.181 Y1022.293
G1 X610.595 Y1022.329
G1 X611.003 Y1022.397
G1 X611.349 Y1022.484
G1 X611.499 Y1022.536
G1 X611.778 Y1022.664
G1 X612.024 Y1022.846
G1 X612.228 Y1023.076
G1 X612.38 Y1023.342
G1 X612.473 Y1023.634
G1 X612.505 Y1023.939
G1 Y1025.97
G3 X611.921 Y1026.581 I-0.635 J-0.022
G1 X604.84 Y1027.148
G3 X604.367 Y1026.989 I-0.051 J-0.633
G3 X604.155 Y1026.537 I0.423 J-0.474
G1 Y1024.442
G1 X604.163 Y1024.28
G1 X604.189 Y1024.08
G1 X604.235 Y1023.866
G1 X604.305 Y1023.632
G1 X604.401 Y1023.386
G1 X604.53 Y1023.12
G1 X604.689 Y1022.849
G1 X604.894 Y1022.558
G1 X605.128 Y1022.276
G1 X605.418 Y1021.979
G1 X605.75 Y1021.69
G1 X606.121 Y1021.414
G1 X606.551 Y1021.147
G1 X607.028 Y1020.901
G1 X607.534 Y1020.689
G1 X608.066 Y1020.516
G1 X608.614 Y1020.384
G1 X609.169 Y1020.298
G1 X609.691 Y1020.259
G1 X610.18 Y1020.261
G1 X610.595 Y1020.297
G1 X611.002 Y1020.366
G1 X611.349 Y1020.453
G1 X611.499 Y1020.504
G1 X611.778 Y1020.632
G1 X612.024 Y1020.815
G1 X612.228 Y1021.044
G1 X612.38 Y1021.31
G1 X612.473 Y1021.602
G1 X612.505 Y1021.907
G1 Y1023.939
G3 X611.915 Y1024.55 I-0.635 J-0.022
G1 X604.835 Y1025.053
G3 X604.365 Y1024.892 I-0.045 J-0.633
G3 X604.155 Y1024.442 I0.425 J-0.472
G1 Y1022.432
G1 X604.164 Y1022.247
G1 X604.191 Y1022.046
G1 X604.236 Y1021.833
G1 X604.306 Y1021.599
G1 X604.402 Y1021.353
G1 X604.531 Y1021.088
G1 X604.69 Y1020.817
G1 X604.895 Y1020.526
G1 X605.129 Y1020.244
G1 X605.418 Y1019.947
G1 X605.75 Y1019.658
G1 X606.122 Y1019.383
G1 X606.552 Y1019.115
G1 X607.028 Y1018.87
G1 X607.534 Y1018.658
G1 X608.066 Y1018.484
G1 X608.614 Y1018.353
G1 X609.169 Y1018.266
G1 X609.691 Y1018.227
G1 X610.18 Y1018.23
G1 X610.595 Y1018.266
G1 X611.002 Y1018.334
G1 X611.349 Y1018.421
G1 X611.499 Y1018.473
G1 X611.778 Y1018.601
G1 X612.024 Y1018.783
G1 X612.228 Y1019.013
G1 X612.38 Y1019.279
G1 X612.473 Y1019.571
G1 X612.505 Y1019.876
G1 Y1021.907
G3 X611.917 Y1022.518 I-0.635 J-0.022
G1 X604.837 Y1023.043
G3 X604.366 Y1022.883 I-0.047 J-0.633
G3 X604.155 Y1022.432 I0.424 J-0.473
G1 Y1020.442
G1 X604.166 Y1020.214
G1 X604.193 Y1020.013
G1 X604.238 Y1019.801
G1 X604.308 Y1019.567
G1 X604.404 Y1019.321
G1 X604.533 Y1019.055
G1 X604.692 Y1018.785
G1 X604.897 Y1018.494
G1 X605.131 Y1018.212
G1 X605.42 Y1017.915
G1 X605.752 Y1017.626
G1 X606.123 Y1017.351
G1 X606.553 Y1017.084
G1 X607.029 Y1016.838
G1 X607.535 Y1016.626
G1 X608.067 Y1016.453
G1 X608.614 Y1016.321
G1 X609.17 Y1016.235
G1 X609.691 Y1016.196
G1 X610.181 Y1016.199
G1 X610.595 Y1016.234
G1 X611.003 Y1016.303
G1 X611.349 Y1016.39
G1 X611.499 Y1016.441
G1 X611.778 Y1016.569
G1 X612.024 Y1016.752
G1 X612.228 Y1016.981
G1 X612.38 Y1017.247
G1 X612.473 Y1017.539
G1 X612.505 Y1017.844
G1 Y1019.876
G3 X611.921 Y1020.486 I-0.635 J-0.022
G1 X604.84 Y1021.053
G3 X604.367 Y1020.894 I-0.051 J-0.633
G3 X604.155 Y1020.442 I0.423 J-0.474
G1 Y1018.346
G1 X604.163 Y1018.185
G1 X604.189 Y1017.985
G1 X604.235 Y1017.772
G1 X604.305 Y1017.538
G1 X604.401 Y1017.291
G1 X604.53 Y1017.026
G1 X604.689 Y1016.755
G1 X604.894 Y1016.464
G1 X605.128 Y1016.181
G1 X605.418 Y1015.884
G1 X605.75 Y1015.595
G1 X606.121 Y1015.32
G1 X606.551 Y1015.052
G1 X607.028 Y1014.807
G1 X607.534 Y1014.595
G1 X608.066 Y1014.421
G1 X608.614 Y1014.29
G1 X609.169 Y1014.203
G1 X609.691 Y1014.164
G1 X610.18 Y1014.167
G1 X610.595 Y1014.203
G1 X611.002 Y1014.271
G1 X611.349 Y1014.358
G1 X611.499 Y1014.41
G1 X611.778 Y1014.538
G1 X612.024 Y1014.72
G1 X612.228 Y1014.95
G1 X612.38 Y1015.216
G1 X612.473 Y1015.508
G1 X612.505 Y1015.813
G1 Y1017.844
G3 X611.915 Y1018.455 I-0.635 J-0.022
G1 X604.835 Y1018.958
G3 X604.365 Y1018.796 I-0.045 J-0.633
G3 X604.155 Y1018.346 I0.425 J-0.472
G1 Y1016.337
G1 X604.164 Y1016.152
G1 X604.19 Y1015.952
G1 X604.236 Y1015.739
G1 X604.306 Y1015.505
G1 X604.402 Y1015.259
G1 X604.531 Y1014.993
G1 X604.69 Y1014.723
G1 X604.895 Y1014.431
G1 X605.129 Y1014.149
G1 X605.418 Y1013.853
G1 X605.75 Y1013.563
G1 X606.122 Y1013.288
G1 X606.552 Y1013.021
G1 X607.028 Y1012.775
G1 X607.534 Y1012.563
G1 X608.066 Y1012.39
G1 X608.614 Y1012.258
G1 X609.169 Y1012.172
G1 X609.691 Y1012.133
G1 X610.18 Y1012.135
G1 X610.595 Y1012.171
G1 X611.002 Y1012.24
G1 X611.349 Y1012.327
G1 X611.499 Y1012.378
G1 X611.778 Y1012.506
G1 X612.024 Y1012.689
G1 X612.228 Y1012.918
G1 X612.38 Y1013.184
G1 X612.473 Y1013.476
G1 X612.505 Y1013.781
G1 Y1015.813
G3 X611.917 Y1016.424 I-0.635 J-0.022
G1 X604.836 Y1016.948
G3 X604.366 Y1016.788 I-0.047 J-0.633
G3 X604.155 Y1016.337 I0.424 J-0.473
G1 Y1014.347
G1 X604.166 Y1014.119
G1 X604.193 Y1013.919
G1 X604.238 Y1013.706
G1 X604.308 Y1013.472
G1 X604.404 Y1013.226
G1 X604.533 Y1012.961
G1 X604.692 Y1012.69
G1 X604.897 Y1012.399
G1 X605.13 Y1012.117
G1 X605.42 Y1011.821
G1 X605.752 Y1011.531
G1 X606.123 Y1011.257
G1 X606.553 Y1010.989
G1 X607.029 Y1010.744
G1 X607.535 Y1010.532
G1 X608.067 Y1010.358
G1 X608.614 Y1010.227
G1 X609.17 Y1010.14
G1 X609.691 Y1010.101
G1 X610.181 Y1010.104
G1 X610.595 Y1010.14
G1 X611.003 Y1010.208
G1 X611.349 Y1010.296
G1 X611.499 Y1010.347
G1 X611.778 Y1010.475
G1 X612.024 Y1010.657
G1 X612.228 Y1010.887
G1 X612.38 Y1011.153
G1 X612.473 Y1011.445
G1 X612.505 Y1011.75
G1 Y1013.781
G3 X611.921 Y1014.392 I-0.635 J-0.022
G1 X604.84 Y1014.957
G3 X604.367 Y1014.798 I-0.051 J-0.633
G3 X604.155 Y1014.347 I0.423 J-0.474
G1 Y1012.251
G1 X604.163 Y1012.091
G1 X604.189 Y1011.891
G1 X604.235 Y1011.677
G1 X604.305 Y1011.443
G1 X604.401 Y1011.197
G1 X604.53 Y1010.931
G1 X604.689 Y1010.66
G1 X604.894 Y1010.369
G1 X605.128 Y1010.087
G1 X605.418 Y1009.79
G1 X605.75 Y1009.501
G1 X606.121 Y1009.226
G1 X606.551 Y1008.958
G1 X607.027 Y1008.712
G1 X607.534 Y1008.5
G1 X608.066 Y1008.327
G1 X608.614 Y1008.195
G1 X609.169 Y1008.109
G1 X609.691 Y1008.07
G1 X610.18 Y1008.073
G1 X610.595 Y1008.108
G1 X611.002 Y1008.177
G1 X611.349 Y1008.264
G1 X611.499 Y1008.315
G1 X611.778 Y1008.443
G1 X612.024 Y1008.626
G1 X612.228 Y1008.855
G1 X612.38 Y1009.121
G1 X612.473 Y1009.413
G1 X612.505 Y1009.718
G1 Y1011.75
G3 X611.915 Y1012.361 I-0.635 J-0.022
G1 X604.834 Y1012.863
G3 X604.365 Y1012.701 I-0.045 J-0.633
G3 X604.155 Y1012.251 I0.425 J-0.472
G1 Y1010.242
G1 X604.164 Y1010.058
G1 X604.19 Y1009.857
G1 X604.236 Y1009.644
G1 X604.306 Y1009.41
G1 X604.402 Y1009.164
G1 X604.531 Y1008.899
G1 X604.69 Y1008.628
G1 X604.895 Y1008.337
G1 X605.129 Y1008.055
G1 X605.418 Y1007.758
G1 X605.75 Y1007.469
G1 X606.122 Y1007.194
G1 X606.552 Y1006.926
G1 X607.028 Y1006.681
G1 X607.534 Y1006.469
G1 X608.066 Y1006.295
G1 X608.614 Y1006.164
G1 X609.169 Y1006.077
G1 X609.691 Y1006.038
G1 X610.18 Y1006.041
G1 X610.595 Y1006.077
G1 X611.002 Y1006.145
G1 X611.349 Y1006.232
G1 X611.499 Y1006.284
G1 X611.778 Y1006.412
G1 X612.024 Y1006.594
G1 X612.228 Y1006.824
G1 X612.38 Y1007.09
G1 X612.473 Y1007.382
G1 X612.505 Y1007.687
G1 Y1009.718
G3 X611.917 Y1010.329 I-0.635 J-0.022
G1 X604.836 Y1010.853
G3 X604.366 Y1010.692 I-0.047 J-0.633
G3 X604.155 Y1010.242 I0.424 J-0.473
G1 Y1008.251
G1 X604.166 Y1008.025
G1 X604.193 Y1007.824
G1 X604.238 Y1007.612
G1 X604.308 Y1007.378
G1 X604.404 Y1007.132
G1 X604.533 Y1006.866
G1 X604.692 Y1006.596
G1 X604.896 Y1006.305
G1 X605.13 Y1006.023
G1 X605.42 Y1005.726
G1 X605.752 Y1005.437
G1 X606.123 Y1005.162
G1 X606.553 Y1004.895
G1 X607.029 Y1004.649
G1 X607.535 Y1004.437
G1 X608.067 Y1004.264
G1 X608.614 Y1004.133
G1 X609.17 Y1004.046
G1 X609.691 Y1004.007
G1 X610.181 Y1004.01
G1 X610.595 Y1004.045
G1 X611.003 Y1004.114
G1 X611.349 Y1004.201
G1 X611.499 Y1004.252
G1 X611.778 Y1004.38
G1 X612.024 Y1004.563
G1 X612.228 Y1004.792
G1 X612.38 Y1005.058
G1 X612.473 Y1005.35
G1 X612.505 Y1005.655
G1 Y1007.687
G3 X611.921 Y1008.298 I-0.635 J-0.022
G1 X604.84 Y1008.862
G3 X604.367 Y1008.703 I-0.05 J-0.633
G3 X604.155 Y1008.251 I0.423 J-0.474
G1 Y1006.156
G1 X604.163 Y1005.996
G1 X604.189 Y1005.796
G1 X604.235 Y1005.583
G1 X604.305 Y1005.349
G1 X604.401 Y1005.102
G1 X604.53 Y1004.837
G1 X604.689 Y1004.566
G1 X604.894 Y1004.275
G1 X605.128 Y1003.992
G1 X605.418 Y1003.695
G1 X605.75 Y1003.406
G1 X606.121 Y1003.131
G1 X606.551 Y1002.863
G1 X607.027 Y1002.618
G1 X607.534 Y1002.406
G1 X608.066 Y1002.232
G1 X608.614 Y1002.101
G1 X609.169 Y1002.014
G1 X609.691 Y1001.975
G1 X610.18 Y1001.978
G1 X610.595 Y1002.014
G1 X611.002 Y1002.082
G1 X611.349 Y1002.169
G1 X611.499 Y1002.221
G1 X611.778 Y1002.349
G1 X612.024 Y1002.531
G1 X612.228 Y1002.761
G1 X612.38 Y1003.027
G1 X612.473 Y1003.319
G1 X612.505 Y1003.624
G1 Y1005.655
G3 X611.915 Y1006.267 I-0.635 J-0.022
G1 X604.834 Y1006.768
G3 X604.365 Y1006.606 I-0.045 J-0.633
G3 X604.155 Y1006.156 I0.425 J-0.472
G1 Y1004.147
G1 X604.164 Y1003.963
G1 X604.19 Y1003.763
G1 X604.236 Y1003.55
G1 X604.306 Y1003.316
G1 X604.402 Y1003.07
G1 X604.531 Y1002.804
G1 X604.69 Y1002.534
G1 X604.895 Y1002.242
G1 X605.129 Y1001.96
G1 X605.418 Y1001.664
G1 X605.75 Y1001.374
G1 X606.122 Y1001.099
G1 X606.552 Y1000.832
G1 X607.028 Y1000.586
G1 X607.534 Y1000.374
G1 X608.066 Y1000.201
G1 X608.614 Y1000.069
G1 X609.169 Y999.983
G1 X609.691 Y999.944
G1 X610.18 Y999.946
G1 X610.595 Y999.982
G1 X611.002 Y1000.051
G1 X611.349 Y1000.138
G1 X611.499 Y1000.189
G1 X611.778 Y1000.317
G1 X612.024 Y1000.5
G1 X612.228 Y1000.729
G1 X612.38 Y1000.995
G1 X612.473 Y1001.287
G1 X612.505 Y1001.592
G1 Y1003.624
G3 X611.917 Y1004.235 I-0.635 J-0.022
G1 X604.836 Y1004.758
G3 X604.366 Y1004.597 I-0.047 J-0.633
G3 X604.155 Y1004.147 I0.424 J-0.473
G1 Y1002.156
G1 X604.166 Y1001.93
G1 X604.193 Y1001.73
G1 X604.238 Y1001.517
G1 X604.308 Y1001.283
G1 X604.404 Y1001.037
G1 X604.533 Y1000.772
G1 X604.692 Y1000.502
G1 X604.896 Y1000.21
G1 X605.13 Y999.928
G1 X605.42 Y999.632
G1 X605.752 Y999.342
G1 X606.123 Y999.068
G1 X606.553 Y998.8
G1 X607.029 Y998.555
G1 X607.535 Y998.343
G1 X608.067 Y998.169
G1 X608.614 Y998.038
G1 X609.17 Y997.951
G1 X609.691 Y997.912
G1 X610.181 Y997.915
G1 X610.595 Y997.951
G1 X611.003 Y998.019
G1 X611.349 Y998.107
G1 X611.499 Y998.158
G1 X611.778 Y998.286
G1 X612.024 Y998.468
G1 X612.228 Y998.698
G1 X612.38 Y998.964
G1 X612.473 Y999.256
G1 X612.505 Y999.561
G1 Y1001.592
G3 X611.921 Y1002.203 I-0.635 J-0.022
G1 X604.84 Y1002.767
G3 X604.367 Y1002.608 I-0.05 J-0.633
G3 X604.155 Y1002.156 I0.423 J-0.474
G1 Y1000.061
G1 X604.163 Y999.902
G1 X604.189 Y999.702
G1 X604.235 Y999.488
G1 X604.305 Y999.254
G1 X604.401 Y999.008
G1 X604.53 Y998.742
G1 X604.689 Y998.471
G1 X604.894 Y998.18
G1 X605.128 Y997.898
G1 X605.418 Y997.601
G1 X605.75 Y997.312
G1 X606.121 Y997.037
G1 X606.551 Y996.769
G1 X607.027 Y996.523
G1 X607.534 Y996.311
G1 X608.066 Y996.138
G1 X608.614 Y996.006
G1 X609.169 Y995.92
G1 X609.691 Y995.881
G1 X610.18 Y995.884
G1 X610.595 Y995.919
G1 X611.002 Y995.988
G1 X611.349 Y996.075
G1 X611.499 Y996.126
G1 X611.778 Y996.254
G1 X612.024 Y996.437
G1 X612.228 Y996.666
G1 X612.38 Y996.932
G1 X612.473 Y997.224
G1 X612.505 Y997.529
G1 Y999.561
G3 X611.915 Y1000.172 I-0.635 J-0.022
G1 X604.834 Y1000.672
G3 X604.365 Y1000.511 I-0.045 J-0.633
G3 X604.155 Y1000.061 I0.425 J-0.472
G1 Y998.052
G1 X604.164 Y997.869
G1 X604.19 Y997.669
G1 X604.236 Y997.455
G1 X604.306 Y997.221
G1 X604.402 Y996.975
G1 X604.531 Y996.71
G1 X604.69 Y996.439
G1 X604.895 Y996.148
G1 X605.129 Y995.866
G1 X605.418 Y995.569
G1 X605.75 Y995.28
G1 X606.122 Y995.005
G1 X606.552 Y994.737
G1 X607.028 Y994.492
G1 X607.534 Y994.28
G1 X608.066 Y994.106
G1 X608.614 Y993.975
G1 X609.169 Y993.888
G1 X609.691 Y993.849
G1 X610.18 Y993.852
G1 X610.595 Y993.888
G1 X611.002 Y993.956
G1 X611.349 Y994.043
G1 X611.499 Y994.095
G1 X611.778 Y994.223
G1 X612.024 Y994.405
G1 X612.228 Y994.635
G1 X612.38 Y994.901
G1 X612.473 Y995.193
G1 X612.505 Y995.498
G1 Y997.529
G3 X611.917 Y998.14 I-0.635 J-0.022
G1 X604.836 Y998.663
G3 X604.366 Y998.502 I-0.047 J-0.633
G3 X604.155 Y998.052 I0.424 J-0.473
G1 Y996.061
G1 X604.166 Y995.836
G1 X604.193 Y995.635
G1 X604.238 Y995.423
G1 X604.308 Y995.189
G1 X604.404 Y994.943
G1 X604.533 Y994.677
G1 X604.692 Y994.407
G1 X604.896 Y994.116
G1 X605.13 Y993.834
G1 X605.42 Y993.537
G1 X605.751 Y993.248
G1 X606.123 Y992.973
G1 X606.553 Y992.706
G1 X607.029 Y992.46
G1 X607.535 Y992.248
G1 X608.067 Y992.075
G1 X608.614 Y991.944
G1 X609.17 Y991.857
G1 X609.691 Y991.818
G1 X610.181 Y991.821
G1 X610.595 Y991.856
G1 X611.003 Y991.925
G1 X611.349 Y992.012
G1 X611.499 Y992.063
G1 X611.778 Y992.191
G1 X612.024 Y992.374
G1 X612.228 Y992.603
G1 X612.38 Y992.869
G1 X612.473 Y993.161
G1 X612.505 Y993.466
G1 Y995.498
G3 X611.921 Y996.109 I-0.635 J-0.022
G1 X604.84 Y996.672
G3 X604.367 Y996.513 I-0.05 J-0.633
G3 X604.155 Y996.061 I0.423 J-0.474
G1 Y993.966
G1 X604.163 Y993.807
G1 X604.189 Y993.607
G1 X604.235 Y993.394
G1 X604.305 Y993.16
G1 X604.401 Y992.913
G1 X604.53 Y992.648
G1 X604.689 Y992.377
G1 X604.894 Y992.086
G1 X605.128 Y991.803
G1 X605.418 Y991.506
G1 X605.749 Y991.217
G1 X606.121 Y990.942
G1 X606.551 Y990.674
G1 X607.027 Y990.429
G1 X607.534 Y990.217
G1 X608.066 Y990.043
G1 X608.614 Y989.912
G1 X609.169 Y989.825
G1 X609.691 Y989.786
G1 X610.18 Y989.789
G1 X610.595 Y989.825
G1 X611.002 Y989.893
G1 X611.349 Y989.981
G1 X611.499 Y990.032
G1 X611.778 Y990.16
G1 X612.024 Y990.342
G1 X612.228 Y990.572
G1 X612.38 Y990.838
G1 X612.473 Y991.13
G1 X612.505 Y991.435
G1 Y993.466
G3 X611.915 Y994.078 I-0.635 J-0.022
G1 X604.834 Y994.577
G3 X604.365 Y994.416 I-0.045 J-0.633
G3 X604.155 Y993.966 I0.425 J-0.472
G1 Y991.957
G1 X604.164 Y991.774
G1 X604.19 Y991.574
G1 X604.236 Y991.361
G1 X604.306 Y991.127
G1 X604.402 Y990.881
G1 X604.531 Y990.615
G1 X604.69 Y990.345
G1 X604.895 Y990.053
G1 X605.129 Y989.771
G1 X605.418 Y989.475
G1 X605.75 Y989.185
G1 X606.122 Y988.91
G1 X606.552 Y988.643
G1 X607.028 Y988.397
G1 X607.534 Y988.185
G1 X608.066 Y988.012
G1 X608.614 Y987.88
G1 X609.169 Y987.794
G1 X609.691 Y987.755
G1 X610.18 Y987.758
G1 X610.595 Y987.793
G1 X611.002 Y987.862
G1 X611.349 Y987.949
G1 X611.499 Y988
G1 X611.778 Y988.128
G1 X612.024 Y988.311
G1 X612.228 Y988.54
G1 X612.38 Y988.806
G1 X612.473 Y989.098
G1 X612.505 Y989.403
G1 Y991.435
G3 X611.917 Y992.046 I-0.635 J-0.022
G1 X604.836 Y992.568
G3 X604.366 Y992.407 I-0.047 J-0.633
G3 X604.155 Y991.957 I0.424 J-0.473
G1 Y989.966
G1 X604.166 Y989.741
G1 X604.193 Y989.541
G1 X604.238 Y989.328
G1 X604.308 Y989.094
G1 X604.404 Y988.848
G1 X604.533 Y988.583
G1 X604.692 Y988.313
G1 X604.896 Y988.021
G1 X605.13 Y987.739
G1 X605.42 Y987.443
G1 X605.751 Y987.153
G1 X606.123 Y986.879
G1 X606.553 Y986.611
G1 X607.029 Y986.366
G1 X607.535 Y986.154
G1 X608.067 Y985.98
G1 X608.614 Y985.849
G1 X609.17 Y985.762
G1 X609.691 Y985.723
G1 X610.181 Y985.726
G1 X610.595 Y985.762
G1 X611.003 Y985.83
G1 X611.349 Y985.918
G1 X611.499 Y985.969
G1 X611.778 Y986.097
G1 X612.024 Y986.279
G1 X612.228 Y986.509
G1 X612.38 Y986.775
G1 X612.473 Y987.067
G1 X612.505 Y987.372
G1 Y989.403
G3 X611.921 Y990.014 I-0.635 J-0.022
G1 X604.84 Y990.577
G3 X604.367 Y990.418 I-0.05 J-0.633
G3 X604.155 Y989.966 I0.423 J-0.474
G1 Y987.871
G1 X604.163 Y987.713
G1 X604.189 Y987.513
G1 X604.235 Y987.299
G1 X604.305 Y987.065
G1 X604.401 Y986.819
G1 X604.53 Y986.553
G1 X604.689 Y986.282
G1 X604.894 Y985.991
G1 X605.128 Y985.709
G1 X605.418 Y985.412
G1 X605.749 Y985.123
G1 X606.121 Y984.848
G1 X606.551 Y984.58
G1 X607.027 Y984.334
G1 X607.534 Y984.122
G1 X608.066 Y983.949
G1 X608.614 Y983.818
G1 X609.169 Y983.731
G1 X609.691 Y983.692
G1 X610.18 Y983.695
G1 X610.595 Y983.73
G1 X611.002 Y983.799
G1 X611.349 Y983.886
G1 X611.499 Y983.937
G1 X611.778 Y984.065
G1 X612.024 Y984.248
G1 X612.228 Y984.477
G1 X612.38 Y984.743
G1 X612.473 Y985.035
G1 X612.505 Y985.34
G1 Y987.372
G3 X611.915 Y987.983 I-0.635 J-0.022
G1 X604.834 Y988.482
G3 X604.365 Y988.321 I-0.045 J-0.633
G3 X604.155 Y987.871 I0.425 J-0.472
G1 Y985.861
G1 X604.164 Y985.68
G1 X604.19 Y985.479
G1 X604.236 Y985.266
G1 X604.306 Y985.032
G1 X604.402 Y984.786
G1 X604.531 Y984.521
G1 X604.69 Y984.25
G1 X604.895 Y983.959
G1 X605.129 Y983.677
G1 X605.418 Y983.38
G1 X605.75 Y983.091
G1 X606.122 Y982.816
G1 X606.552 Y982.548
G1 X607.028 Y982.303
G1 X607.534 Y982.091
G1 X608.066 Y981.917
G1 X608.614 Y981.786
G1 X609.169 Y981.699
G1 X609.691 Y981.66
G1 X610.18 Y981.663
G1 X610.594 Y981.699
G1 X611.002 Y981.767
G1 X611.349 Y981.854
G1 X611.499 Y981.906
G1 X611.778 Y982.034
G1 X612.024 Y982.216
G1 X612.228 Y982.446
G1 X612.38 Y982.712
G1 X612.473 Y983.004
G1 X612.505 Y983.309
G1 Y985.34
G3 X611.917 Y985.951 I-0.635 J-0.022
G1 X604.836 Y986.473
G3 X604.366 Y986.312 I-0.047 J-0.633
G3 X604.155 Y985.861 I0.424 J-0.473
G1 Y983.871
G1 X604.166 Y983.647
G1 X604.192 Y983.446
G1 X604.238 Y983.234
G1 X604.308 Y983
G1 X604.404 Y982.754
G1 X604.533 Y982.488
G1 X604.692 Y982.218
G1 X604.896 Y981.927
G1 X605.13 Y981.645
G1 X605.42 Y981.348
G1 X605.751 Y981.059
G1 X606.123 Y980.784
G1 X606.553 Y980.517
G1 X607.029 Y980.271
G1 X607.535 Y980.059
G1 X608.067 Y979.886
G1 X608.614 Y979.755
G1 X609.17 Y979.668
G1 X609.691 Y979.629
G1 X610.181 Y979.632
G1 X610.595 Y979.667
G1 X611.003 Y979.736
G1 X611.349 Y979.823
G1 X611.499 Y979.874
G1 X611.778 Y980.002
G1 X612.024 Y980.185
G1 X612.228 Y980.414
G1 X612.38 Y980.68
G1 X612.473 Y980.972
G1 X612.505 Y981.277
G1 Y983.309
G3 X611.921 Y983.92 I-0.635 J-0.022
G1 X604.84 Y984.482
G3 X604.367 Y984.323 I-0.05 J-0.633
G3 X604.155 Y983.871 I0.423 J-0.474
G1 Y981.776
G1 X604.163 Y981.618
G1 X604.189 Y981.418
G1 X604.235 Y981.205
G1 X604.305 Y980.971
G1 X604.401 Y980.724
G1 X604.53 Y980.459
G1 X604.689 Y980.188
G1 X604.894 Y979.897
G1 X605.128 Y979.614
G1 X605.418 Y979.317
G1 X605.749 Y979.028
G1 X606.121 Y978.753
G1 X606.551 Y978.485
G1 X607.027 Y978.24
G1 X607.534 Y978.028
G1 X608.066 Y977.854
G1 X608.614 Y977.723
G1 X609.169 Y977.636
G1 X609.691 Y977.597
G1 X610.18 Y977.6
G1 X610.595 Y977.636
G1 X611.002 Y977.704
G1 X611.349 Y977.792
G1 X611.499 Y977.843
G1 X611.778 Y977.971
G1 X612.024 Y978.153
G1 X612.228 Y978.383
G1 X612.38 Y978.649
G1 X612.473 Y978.941
G1 X612.505 Y979.246
G1 Y981.277
G3 X611.915 Y981.889 I-0.635 J-0.022
G1 X604.834 Y982.387
G3 X604.365 Y982.226 I-0.045 J-0.633
G3 X604.155 Y981.776 I0.425 J-0.472
G1 Y979.766
G1 X604.164 Y979.585
G1 X604.19 Y979.385
G1 X604.236 Y979.172
G1 X604.306 Y978.938
G1 X604.402 Y978.692
G1 X604.531 Y978.426
G1 X604.69 Y978.156
G1 X604.895 Y977.864
G1 X605.129 Y977.582
G1 X605.418 Y977.286
G1 X605.75 Y976.996
G1 X606.122 Y976.721
G1 X606.551 Y976.454
G1 X607.028 Y976.208
G1 X607.534 Y975.996
G1 X608.066 Y975.823
G1 X608.614 Y975.691
G1 X609.169 Y975.605
G1 X609.691 Y975.566
G1 X610.18 Y975.568
G1 X610.594 Y975.604
G1 X611.002 Y975.673
G1 X611.349 Y975.76
G1 X611.499 Y975.811
G1 X611.778 Y975.939
G1 X612.024 Y976.122
G1 X612.228 Y976.351
G1 X612.38 Y976.617
G1 X612.473 Y976.909
G1 X612.505 Y977.214
G1 Y979.246
G3 X611.917 Y979.857 I-0.635 J-0.022
G1 X604.836 Y980.377
G3 X604.366 Y980.217 I-0.047 J-0.633
G3 X604.155 Y979.766 I0.424 J-0.473
G1 Y977.776
G1 X604.166 Y977.552
G1 X604.192 Y977.352
G1 X604.238 Y977.139
G1 X604.308 Y976.905
G1 X604.404 Y976.659
G1 X604.533 Y976.394
G1 X604.692 Y976.124
G1 X604.896 Y975.832
G1 X605.13 Y975.55
G1 X605.42 Y975.254
G1 X605.751 Y974.964
G1 X606.123 Y974.69
G1 X606.553 Y974.422
G1 X607.028 Y974.177
G1 X607.535 Y973.965
G1 X608.067 Y973.791
G1 X608.614 Y973.66
G1 X609.17 Y973.573
G1 X609.691 Y973.534
G1 X610.181 Y973.537
G1 X610.595 Y973.573
G1 X611.003 Y973.641
G1 X611.349 Y973.729
G1 X611.499 Y973.78
G1 X611.778 Y973.908
G1 X612.024 Y974.09
G1 X612.228 Y974.32
G1 X612.38 Y974.586
G1 X612.473 Y974.878
G1 X612.505 Y975.183
G1 Y977.214
G3 X611.921 Y977.825 I-0.635 J-0.022
G1 X604.84 Y978.387
G3 X604.367 Y978.228 I-0.05 J-0.633
G3 X604.155 Y977.776 I0.423 J-0.474
G1 Y975.681
G1 X604.163 Y975.524
G1 X604.189 Y975.324
G1 X604.235 Y975.11
G1 X604.305 Y974.876
G1 X604.401 Y974.63
G1 X604.53 Y974.364
G1 X604.689 Y974.094
G1 X604.894 Y973.802
G1 X605.128 Y973.52
G1 X605.418 Y973.223
G1 X605.749 Y972.934
G1 X606.121 Y972.659
G1 X606.551 Y972.391
G1 X607.027 Y972.145
G1 X607.534 Y971.933
G1 X608.066 Y971.76
G1 X608.613 Y971.628
G1 X609.169 Y971.542
G1 X609.691 Y971.503
G1 X610.18 Y971.505
G1 X610.594 Y971.541
G1 X611.002 Y971.61
G1 X611.349 Y971.697
G1 X611.499 Y971.748
G1 X611.778 Y971.876
G1 X612.024 Y972.059
G1 X612.228 Y972.288
G1 X612.38 Y972.554
G1 X612.473 Y972.846
G1 X612.505 Y973.151
G1 Y975.183
G3 X611.915 Y975.794 I-0.635 J-0.022
G1 X604.834 Y976.292
G3 X604.365 Y976.13 I-0.045 J-0.633
G3 X604.155 Y975.681 I0.425 J-0.472
G1 Y973.776
G1 X604.169 Y973.487
G1 X604.196 Y973.286
G1 X604.241 Y973.074
G1 X604.311 Y972.84
G1 X604.407 Y972.595
G1 X604.536 Y972.329
G1 X604.695 Y972.059
G1 X604.899 Y971.768
G1 X605.133 Y971.487
G1 X605.422 Y971.19
G1 X605.754 Y970.901
G1 X606.125 Y970.626
G1 X606.554 Y970.359
G1 X607.03 Y970.114
G1 X607.536 Y969.902
G1 X608.068 Y969.728
G1 X608.615 Y969.597
G1 X609.17 Y969.51
G1 X609.691 Y969.471
G1 X610.181 Y969.474
G1 X610.595 Y969.51
G1 X611.003 Y969.578
G1 X611.349 Y969.666
G1 X611.499 Y969.717
G1 X611.778 Y969.845
G1 X612.024 Y970.027
G1 X612.228 Y970.257
G1 X612.38 Y970.523
G1 X612.473 Y970.815
G1 X612.505 Y971.12
G1 Y973.151
G3 X611.926 Y973.762 I-0.635 J-0.022
G1 X604.845 Y974.386
G3 X604.369 Y974.229 I-0.056 J-0.633
G3 X604.155 Y973.776 I0.421 J-0.476
G1 Y971.681
G1 X604.166 Y971.46
G1 X604.192 Y971.259
G1 X604.238 Y971.046
G1 X604.308 Y970.812
G1 X604.404 Y970.566
G1 X604.533 Y970.3
G1 X604.692 Y970.03
G1 X604.897 Y969.738
G1 X605.131 Y969.456
G1 X605.42 Y969.16
G1 X605.752 Y968.87
G1 X606.124 Y968.595
G1 X606.553 Y968.328
G1 X607.029 Y968.082
G1 X607.536 Y967.871
G1 X608.068 Y967.697
G1 X608.615 Y967.566
G1 X609.17 Y967.479
G1 X609.691 Y967.44
G1 X610.181 Y967.443
G1 X610.595 Y967.479
G1 X611.003 Y967.547
G1 X611.349 Y967.634
G1 X611.499 Y967.685
G1 X611.778 Y967.813
G1 X612.024 Y967.996
G1 X612.228 Y968.225
G1 X612.38 Y968.492
G1 X612.473 Y968.784
G1 X612.505 Y969.089
G1 Y971.12
G3 X611.921 Y971.731 I-0.635 J-0.022
G1 X604.84 Y972.292
G3 X604.367 Y972.132 I-0.05 J-0.633
G3 X604.155 Y971.681 I0.423 J-0.474
G1 Y969.586
G1 X604.163 Y969.43
G1 X604.189 Y969.23
G1 X604.235 Y969.017
G1 X604.305 Y968.783
G1 X604.401 Y968.536
G1 X604.53 Y968.27
G1 X604.689 Y968
G1 X604.894 Y967.708
G1 X605.128 Y967.426
G1 X605.418 Y967.129
G1 X605.75 Y966.84
G1 X606.121 Y966.564
G1 X606.552 Y966.297
G1 X607.028 Y966.051
G1 X607.534 Y965.839
G1 X608.066 Y965.666
G1 X608.614 Y965.534
G1 X609.169 Y965.448
G1 X609.691 Y965.409
G1 X610.181 Y965.411
G1 X610.595 Y965.447
G1 X611.002 Y965.516
G1 X611.349 Y965.603
G1 X611.499 Y965.654
G1 X611.778 Y965.782
G1 X612.024 Y965.965
G1 X612.228 Y966.194
G1 X612.38 Y966.46
G1 X612.473 Y966.752
G1 X612.505 Y967.057
G1 Y969.089
G3 X611.915 Y969.7 I-0.635 J-0.022
G1 X604.834 Y970.197
G3 X604.365 Y970.035 I-0.044 J-0.633
G3 X604.155 Y969.586 I0.425 J-0.472
G1 Y967.681
G1 X604.169 Y967.393
G1 X604.196 Y967.193
G1 X604.241 Y966.98
G1 X604.311 Y966.746
G1 X604.407 Y966.501
G1 X604.536 Y966.235
G1 X604.695 Y965.965
G1 X604.899 Y965.674
G1 X605.133 Y965.393
G1 X605.422 Y965.096
G1 X605.754 Y964.807
G1 X606.125 Y964.532
G1 X606.554 Y964.265
G1 X607.03 Y964.02
G1 X607.536 Y963.808
G1 X608.068 Y963.634
G1 X608.615 Y963.503
G1 X609.17 Y963.416
G1 X609.691 Y963.377
G1 X610.181 Y963.38
G1 X610.595 Y963.416
G1 X611.003 Y963.484
G1 X611.349 Y963.572
G1 X611.499 Y963.623
G1 X611.778 Y963.751
G1 X612.024 Y963.933
G1 X612.228 Y964.163
G1 X612.38 Y964.429
G1 X612.473 Y964.721
G1 X612.505 Y965.026
G1 Y967.057
G3 X611.926 Y967.667 I-0.635 J-0.022
G1 X604.845 Y968.291
G3 X604.369 Y968.134 I-0.056 J-0.633
G3 X604.155 Y967.681 I0.421 J-0.476
G1 Y965.586
G1 X604.166 Y965.366
G1 X604.192 Y965.165
G1 X604.238 Y964.952
G1 X604.308 Y964.718
G1 X604.404 Y964.472
G1 X604.533 Y964.206
G1 X604.692 Y963.936
G1 X604.897 Y963.644
G1 X605.131 Y963.362
G1 X605.42 Y963.066
G1 X605.752 Y962.776
G1 X606.124 Y962.501
G1 X606.553 Y962.234
G1 X607.029 Y961.988
G1 X607.536 Y961.777
G1 X608.068 Y961.603
G1 X608.615 Y961.472
G1 X609.17 Y961.385
G1 X609.691 Y961.346
G1 X610.181 Y961.349
G1 X610.595 Y961.385
G1 X611.003 Y961.453
G1 X611.349 Y961.54
G1 X611.499 Y961.591
G1 X611.778 Y961.719
G1 X612.024 Y961.902
G1 X612.228 Y962.131
G1 X612.38 Y962.398
G1 X612.473 Y962.69
G1 X612.505 Y962.994
G1 Y965.026
G3 X611.92 Y965.637 I-0.635 J-0.022
G1 X604.84 Y966.196
G3 X604.367 Y966.037 I-0.05 J-0.633
G3 X604.155 Y965.586 I0.423 J-0.474
G1 Y963.49
G1 X604.163 Y963.336
G1 X604.189 Y963.136
G1 X604.235 Y962.923
G1 X604.305 Y962.688
G1 X604.401 Y962.442
G1 X604.53 Y962.176
G1 X604.689 Y961.906
G1 X604.894 Y961.614
G1 X605.128 Y961.332
G1 X605.418 Y961.035
G1 X605.75 Y960.745
G1 X606.121 Y960.47
G1 X606.552 Y960.203
G1 X607.028 Y959.957
G1 X607.534 Y959.745
G1 X608.066 Y959.571
G1 X608.614 Y959.44
G1 X609.169 Y959.353
G1 X609.691 Y959.314
G1 X610.181 Y959.317
G1 X610.595 Y959.353
G1 X611.002 Y959.422
G1 X611.349 Y959.509
G1 X611.499 Y959.56
G1 X611.778 Y959.688
G1 X612.024 Y959.87
G1 X612.228 Y960.1
G1 X612.38 Y960.366
G1 X612.473 Y960.658
G1 X612.505 Y960.963
G1 Y962.994
G3 X611.915 Y963.606 I-0.635 J-0.022
G1 X604.834 Y964.102
G3 X604.365 Y963.94 I-0.044 J-0.633
G3 X604.155 Y963.49 I0.425 J-0.472
G1 Y961.586
G1 X604.169 Y961.299
G1 X604.196 Y961.099
G1 X604.241 Y960.886
G1 X604.311 Y960.652
G1 X604.407 Y960.407
G1 X604.536 Y960.141
G1 X604.694 Y959.871
G1 X604.899 Y959.58
G1 X605.133 Y959.298
G1 X605.422 Y959.002
G1 X605.754 Y958.713
G1 X606.125 Y958.438
G1 X606.554 Y958.171
G1 X607.03 Y957.925
G1 X607.536 Y957.714
G1 X608.068 Y957.54
G1 X608.615 Y957.409
G1 X609.17 Y957.322
G1 X609.691 Y957.283
G1 X610.181 Y957.286
G1 X610.595 Y957.322
G1 X611.003 Y957.39
G1 X611.349 Y957.477
G1 X611.499 Y957.529
G1 X611.778 Y957.657
G1 X612.024 Y957.839
G1 X612.228 Y958.069
G1 X612.38 Y958.335
G1 X612.473 Y958.627
G1 X612.505 Y958.932
G1 Y960.963
G3 X611.926 Y961.573 I-0.635 J-0.022
G1 X604.845 Y962.196
G3 X604.369 Y962.039 I-0.056 J-0.633
G3 X604.155 Y961.586 I0.421 J-0.476
G1 Y959.49
G1 X604.166 Y959.271
G1 X604.192 Y959.071
G1 X604.238 Y958.858
G1 X604.308 Y958.624
G1 X604.404 Y958.378
G1 X604.533 Y958.112
G1 X604.692 Y957.842
G1 X604.897 Y957.55
G1 X605.131 Y957.268
G1 X605.42 Y956.971
G1 X605.752 Y956.682
G1 X606.124 Y956.407
G1 X606.553 Y956.14
G1 X607.029 Y955.894
G1 X607.536 Y955.682
G1 X608.068 Y955.509
G1 X608.615 Y955.378
G1 X609.17 Y955.291
G1 X609.691 Y955.252
G1 X610.181 Y955.255
G1 X610.595 Y955.29
G1 X611.003 Y955.359
G1 X611.349 Y955.446
G1 X611.499 Y955.497
G1 X611.778 Y955.625
G1 X612.024 Y955.808
G1 X612.228 Y956.037
G1 X612.38 Y956.304
G1 X612.473 Y956.595
G1 X612.505 Y956.9
G1 Y958.932
G3 X611.92 Y959.542 I-0.635 J-0.022
G1 X604.84 Y960.101
G3 X604.367 Y959.942 I-0.05 J-0.633
G3 X604.155 Y959.49 I0.423 J-0.474
G1 Y957.395
G1 X604.163 Y957.242
G1 X604.189 Y957.042
G1 X604.235 Y956.828
G1 X604.305 Y956.594
G1 X604.401 Y956.348
G1 X604.53 Y956.082
G1 X604.689 Y955.811
G1 X604.894 Y955.52
G1 X605.128 Y955.238
G1 X605.418 Y954.941
G1 X605.75 Y954.651
G1 X606.121 Y954.376
G1 X606.552 Y954.109
G1 X607.028 Y953.863
G1 X607.534 Y953.651
G1 X608.066 Y953.477
G1 X608.614 Y953.346
G1 X609.169 Y953.259
G1 X609.691 Y953.22
G1 X610.181 Y953.223
G1 X610.595 Y953.259
G1 X611.002 Y953.327
G1 X611.349 Y953.415
G1 X611.499 Y953.466
G1 X611.778 Y953.594
G1 X612.024 Y953.776
G1 X612.228 Y954.006
G1 X612.38 Y954.272
G1 X612.473 Y954.564
G1 X612.505 Y954.869
G1 Y956.9
G3 X611.915 Y957.512 I-0.635 J-0.022
G1 X604.834 Y958.007
G3 X604.365 Y957.845 I-0.044 J-0.633
G3 X604.155 Y957.395 I0.425 J-0.472
G1 Y955.491
G1 X604.169 Y955.205
G1 X604.196 Y955.004
G1 X604.241 Y954.792
G1 X604.311 Y954.558
G1 X604.407 Y954.313
G1 X604.536 Y954.047
G1 X604.694 Y953.777
G1 X604.899 Y953.486
G1 X605.133 Y953.204
G1 X605.422 Y952.908
G1 X605.754 Y952.619
G1 X606.125 Y952.344
G1 X606.554 Y952.077
G1 X607.03 Y951.831
G1 X607.536 Y951.62
G1 X608.068 Y951.446
G1 X608.615 Y951.315
G1 X609.17 Y951.228
G1 X609.691 Y951.189
G1 X610.181 Y951.192
G1 X610.595 Y951.228
G1 X611.003 Y951.296
G1 X611.349 Y951.383
G1 X611.499 Y951.434
G1 X611.778 Y951.562
G1 X612.024 Y951.745
G1 X612.228 Y951.974
G1 X612.38 Y952.241
G1 X612.473 Y952.533
G1 X612.505 Y952.838
G1 Y954.869
G3 X611.926 Y955.479 I-0.635 J-0.022
G1 X604.845 Y956.101
G3 X604.369 Y955.944 I-0.056 J-0.633
G3 X604.155 Y955.491 I0.421 J-0.476
G1 Y953.395
G1 X604.166 Y953.177
G1 X604.192 Y952.977
G1 X604.238 Y952.764
G1 X604.308 Y952.53
G1 X604.404 Y952.284
G1 X604.533 Y952.018
G1 X604.692 Y951.748
G1 X604.897 Y951.456
G1 X605.131 Y951.174
G1 X605.42 Y950.877
G1 X605.752 Y950.588
G1 X606.123 Y950.313
G1 X606.553 Y950.046
G1 X607.029 Y949.8
G1 X607.536 Y949.588
G1 X608.068 Y949.415
G1 X608.615 Y949.284
G1 X609.17 Y949.197
G1 X609.691 Y949.158
G1 X610.181 Y949.161
G1 X610.595 Y949.196
G1 X611.003 Y949.265
G1 X611.349 Y949.352
G1 X611.499 Y949.403
G1 X611.778 Y949.531
G1 X612.024 Y949.714
G1 X612.228 Y949.943
G1 X612.38 Y950.209
G1 X612.473 Y950.501
G1 X612.505 Y950.806
G1 Y952.838
G3 X611.92 Y953.448 I-0.635 J-0.022
G1 X604.839 Y954.006
G3 X604.367 Y953.847 I-0.05 J-0.633
G3 X604.155 Y953.395 I0.423 J-0.474
G1 Y951.3
G1 X604.163 Y951.148
G1 X604.189 Y950.948
G1 X604.235 Y950.734
G1 X604.305 Y950.5
G1 X604.401 Y950.254
G1 X604.53 Y949.988
G1 X604.689 Y949.717
G1 X604.894 Y949.426
G1 X605.128 Y949.144
G1 X605.418 Y948.847
G1 X605.749 Y948.557
G1 X606.121 Y948.282
G1 X606.551 Y948.014
G1 X607.028 Y947.769
G1 X607.534 Y947.557
G1 X608.066 Y947.383
G1 X608.614 Y947.252
G1 X609.169 Y947.165
G1 X609.691 Y947.126
G1 X610.181 Y947.129
G1 X610.595 Y947.165
G1 X611.002 Y947.233
G1 X611.349 Y947.32
G1 X611.499 Y947.372
G1 X611.778 Y947.5
G1 X612.024 Y947.682
G1 X612.228 Y947.912
G1 X612.38 Y948.178
G1 X612.473 Y948.47
G1 X612.505 Y948.775
G1 Y950.806
G3 X611.915 Y951.417 I-0.635 J-0.022
G1 X604.834 Y951.911
G3 X604.365 Y951.75 I-0.044 J-0.633
G3 X604.155 Y951.3 I0.425 J-0.472
G1 Y949.395
G1 X604.169 Y949.11
G1 X604.195 Y948.91
G1 X604.241 Y948.698
G1 X604.311 Y948.464
G1 X604.407 Y948.218
G1 X604.536 Y947.953
G1 X604.694 Y947.683
G1 X604.899 Y947.392
G1 X605.133 Y947.11
G1 X605.422 Y946.814
G1 X605.754 Y946.524
G1 X606.125 Y946.25
G1 X606.554 Y945.983
G1 X607.03 Y945.737
G1 X607.536 Y945.525
G1 X608.068 Y945.352
G1 X608.615 Y945.221
G1 X609.17 Y945.134
G1 X609.691 Y945.095
G1 X610.181 Y945.098
G1 X610.595 Y945.134
G1 X611.003 Y945.202
G1 X611.349 Y945.289
G1 X611.499 Y945.34
G1 X611.778 Y945.468
G1 X612.024 Y945.651
G1 X612.228 Y945.88
G1 X612.38 Y946.147
G1 X612.473 Y946.438
G1 X612.505 Y946.743
G1 Y948.775
G3 X611.926 Y949.385 I-0.635 J-0.022
G1 X604.845 Y950.006
G3 X604.369 Y949.849 I-0.055 J-0.633
G3 X604.155 Y949.395 I0.421 J-0.476
G1 Y947.3
G1 X604.166 Y947.083
G1 X604.192 Y946.883
G1 X604.238 Y946.67
G1 X604.308 Y946.436
G1 X604.404 Y946.19
G1 X604.533 Y945.924
G1 X604.692 Y945.653
G1 X604.897 Y945.362
G1 X605.131 Y945.08
G1 X605.42 Y944.783
G1 X605.752 Y944.494
G1 X606.123 Y944.219
G1 X606.553 Y943.951
G1 X607.029 Y943.706
G1 X607.536 Y943.494
G1 X608.067 Y943.321
G1 X608.615 Y943.189
G1 X609.17 Y943.103
G1 X609.691 Y943.064
G1 X610.181 Y943.066
G1 X610.595 Y943.102
G1 X611.003 Y943.171
G1 X611.349 Y943.258
G1 X611.499 Y943.309
G1 X611.778 Y943.437
G1 X612.024 Y943.62
G1 X612.228 Y943.849
G1 X612.38 Y944.115
G1 X612.473 Y944.407
G1 X612.505 Y944.712
G1 Y946.743
G3 X611.92 Y947.354 I-0.635 J-0.022
G1 X604.839 Y947.911
G3 X604.367 Y947.752 I-0.05 J-0.633
G3 X604.155 Y947.3 I0.423 J-0.474
G1 Y945.205
G1 X604.163 Y945.054
G1 X604.189 Y944.854
G1 X604.234 Y944.64
G1 X604.305 Y944.406
G1 X604.401 Y944.16
G1 X604.529 Y943.894
G1 X604.689 Y943.623
G1 X604.894 Y943.332
G1 X605.128 Y943.049
G1 X605.418 Y942.752
G1 X605.749 Y942.463
G1 X606.121 Y942.188
G1 X606.551 Y941.92
G1 X607.028 Y941.675
G1 X607.534 Y941.463
G1 X608.066 Y941.289
G1 X608.614 Y941.158
G1 X609.169 Y941.071
G1 X609.691 Y941.032
G1 X610.181 Y941.035
G1 X610.595 Y941.071
G1 X611.002 Y941.139
G1 X611.349 Y941.226
G1 X611.499 Y941.277
G1 X611.778 Y941.405
G1 X612.024 Y941.588
G1 X612.228 Y941.817
G1 X612.38 Y942.084
G1 X612.473 Y942.376
G1 X612.505 Y942.681
G1 Y944.712
G3 X611.914 Y945.323 I-0.635 J-0.022
G1 X604.834 Y945.816
G3 X604.365 Y945.655 I-0.044 J-0.633
G3 X604.155 Y945.205 I0.425 J-0.472
G1 Y943.3
G1 X604.169 Y943.016
G1 X604.195 Y942.816
G1 X604.241 Y942.604
G1 X604.311 Y942.37
G1 X604.407 Y942.124
G1 X604.535 Y941.859
G1 X604.694 Y941.589
G1 X604.899 Y941.298
G1 X605.133 Y941.016
G1 X605.422 Y940.72
G1 X605.753 Y940.43
G1 X606.125 Y940.156
G1 X606.554 Y939.888
G1 X607.03 Y939.643
G1 X607.536 Y939.431
G1 X608.068 Y939.258
G1 X608.615 Y939.127
G1 X609.17 Y939.04
G1 X609.691 Y939.001
G1 X610.181 Y939.004
G1 X610.595 Y939.039
G1 X611.003 Y939.108
G1 X611.349 Y939.195
G1 X611.499 Y939.246
G1 X611.778 Y939.374
G1 X612.024 Y939.557
G1 X612.228 Y939.786
G1 X612.38 Y940.052
G1 X612.473 Y940.344
G1 X612.505 Y940.649
G1 Y942.681
G3 X611.926 Y943.291 I-0.635 J-0.022
G1 X604.845 Y943.911
G3 X604.369 Y943.754 I-0.055 J-0.633
G3 X604.155 Y943.3 I0.421 J-0.476
G1 Y941.205
G1 X604.166 Y940.989
G1 X604.192 Y940.789
G1 X604.238 Y940.576
G1 X604.308 Y940.342
G1 X604.404 Y940.095
G1 X604.533 Y939.83
G1 X604.692 Y939.559
G1 X604.896 Y939.268
G1 X605.131 Y938.986
G1 X605.42 Y938.689
G1 X605.752 Y938.4
G1 X606.123 Y938.125
G1 X606.553 Y937.857
G1 X607.029 Y937.612
G1 X607.536 Y937.4
G1 X608.067 Y937.226
G1 X608.615 Y937.095
G1 X609.17 Y937.008
G1 X609.691 Y936.969
G1 X610.181 Y936.972
G1 X610.595 Y937.008
G1 X611.003 Y937.076
G1 X611.349 Y937.164
G1 X611.499 Y937.215
G1 X611.778 Y937.343
G1 X612.024 Y937.525
G1 X612.228 Y937.755
G1 X612.38 Y938.021
G1 X612.473 Y938.313
G1 X612.505 Y938.618
G1 Y940.649
G3 X611.92 Y941.26 I-0.635 J-0.022
G1 X604.839 Y941.816
G3 X604.367 Y941.657 I-0.05 J-0.633
G3 X604.155 Y941.205 I0.423 J-0.474
G1 Y939.11
G1 X604.163 Y938.96
G1 X604.189 Y938.76
G1 X604.234 Y938.546
G1 X604.305 Y938.312
G1 X604.401 Y938.065
G1 X604.529 Y937.8
G1 X604.689 Y937.529
G1 X604.894 Y937.238
G1 X605.128 Y936.955
G1 X605.418 Y936.658
G1 X605.749 Y936.369
G1 X606.121 Y936.094
G1 X606.551 Y935.826
G1 X607.028 Y935.58
G1 X607.534 Y935.369
G1 X608.066 Y935.195
G1 X608.614 Y935.064
G1 X609.169 Y934.977
G1 X609.691 Y934.938
G1 X610.181 Y934.941
G1 X610.595 Y934.976
G1 X611.002 Y935.045
G1 X611.349 Y935.132
G1 X611.499 Y935.183
G1 X611.778 Y935.311
G1 X612.024 Y935.494
G1 X612.228 Y935.723
G1 X612.38 Y935.99
G1 X612.473 Y936.281
G1 X612.505 Y936.586
G1 Y938.618
G3 X611.914 Y939.229 I-0.635 J-0.022
G1 X604.834 Y939.721
G3 X604.365 Y939.56 I-0.044 J-0.633
G3 X604.155 Y939.11 I0.425 J-0.472
G1 Y937.205
G1 X604.169 Y936.922
G1 X604.195 Y936.722
G1 X604.241 Y936.51
G1 X604.311 Y936.276
G1 X604.407 Y936.03
G1 X604.535 Y935.765
G1 X604.694 Y935.495
G1 X604.899 Y935.204
G1 X605.133 Y934.922
G1 X605.422 Y934.626
G1 X605.753 Y934.336
G1 X606.125 Y934.062
G1 X606.554 Y933.794
G1 X607.03 Y933.549
G1 X607.536 Y933.337
G1 X608.068 Y933.164
G1 X608.615 Y933.032
G1 X609.17 Y932.946
G1 X609.691 Y932.907
G1 X610.181 Y932.909
G1 X610.595 Y932.945
G1 X611.003 Y933.014
G1 X611.349 Y933.101
G1 X611.499 Y933.152
G1 X611.778 Y933.28
G1 X612.024 Y933.463
G1 X612.228 Y933.692
G1 X612.38 Y933.958
G1 X612.473 Y934.25
G1 X612.505 Y934.555
G1 Y936.586
G3 X611.926 Y937.197 I-0.635 J-0.022
G1 X604.845 Y937.816
G3 X604.369 Y937.659 I-0.055 J-0.633
G3 X604.155 Y937.205 I0.421 J-0.476
G1 Y935.11
G1 X604.166 Y934.895
G1 X604.192 Y934.695
G1 X604.238 Y934.482
G1 X604.308 Y934.247
G1 X604.404 Y934.001
G1 X604.533 Y933.736
G1 X604.692 Y933.465
G1 X604.896 Y933.174
G1 X605.131 Y932.892
G1 X605.42 Y932.595
G1 X605.752 Y932.306
G1 X606.123 Y932.031
G1 X606.553 Y931.763
G1 X607.029 Y931.518
G1 X607.536 Y931.306
G1 X608.067 Y931.132
G1 X608.615 Y931.001
G1 X609.17 Y930.914
G1 X609.691 Y930.875
G1 X610.181 Y930.878
G1 X610.595 Y930.914
G1 X611.003 Y930.982
G1 X611.349 Y931.07
G1 X611.499 Y931.121
G1 X611.778 Y931.249
G1 X612.024 Y931.431
G1 X612.228 Y931.661
G1 X612.38 Y931.927
G1 X612.473 Y932.219
G1 X612.505 Y932.524
G1 Y934.555
G3 X611.92 Y935.166 I-0.635 J-0.022
G1 X604.839 Y935.721
G3 X604.367 Y935.561 I-0.05 J-0.633
G3 X604.155 Y935.11 I0.423 J-0.474
G1 Y933.015
G1 X604.162 Y932.865
G1 X604.189 Y932.665
G1 X604.235 Y932.451
G1 X604.305 Y932.217
G1 X604.401 Y931.97
