; Exported from Easel
G20
G90
G1 Z0.15000 F9.0
G0 X1.24356 Y0.77264
G1 Z-0.12500 F9.0
G1 X1.21564 Y0.79590 F30.0
G1 X0.52701 Y1.48453 F30.0
G1 X0.47601 Y1.54074 F30.0
G1 X0.43127 Y1.60092 F30.0
G1 X0.39294 Y1.66470 F30.0
G1 X0.36124 Y1.73172 F30.0
G1 X0.33630 Y1.80154 F30.0
G1 X0.31830 Y1.87384 F30.0
G1 X0.30734 Y1.94821 F30.0
G1 X0.30368 Y2.02426 F30.0
G1 X0.30734 Y2.10031 F30.0
G1 X0.30987 Y2.11744 F30.0
G1 X0.31830 Y2.17468 F30.0
G1 X0.33630 Y2.24698 F30.0
G1 X0.36124 Y2.31680 F30.0
G1 X0.39294 Y2.38382 F30.0
G1 X0.43127 Y2.44760 F30.0
G1 X0.47601 Y2.50778 F30.0
G1 X0.52301 Y2.55959 F30.0
G1 X0.52701 Y2.56400 F30.0
G1 X0.58493 Y2.61633 F30.0
G1 X0.64667 Y2.66171 F30.0
G1 X0.71170 Y2.70010 F30.0
G1 X0.77942 Y2.73151 F30.0
G1 X0.84937 Y2.75592 F30.0
G1 X0.92090 Y2.77338 F30.0
G1 X0.99356 Y2.78384 F30.0
G1 X1.06674 Y2.78732 F30.0
G1 X1.13992 Y2.78384 F30.0
G1 X1.21259 Y2.77338 F30.0
G1 X1.28415 Y2.75592 F30.0
G1 X1.35406 Y2.73151 F30.0
G1 X1.42181 Y2.70010 F30.0
G1 X1.48682 Y2.66171 F30.0
G1 X1.54855 Y2.61633 F30.0
G1 X1.60648 Y2.56400 F30.0
G1 X1.73212 Y2.43835 F30.0
G1 X1.85773 Y2.56863 F30.0
G1 X1.91394 Y2.61966 F30.0
G1 X1.97412 Y2.66440 F30.0
G1 X2.00658 Y2.68388 F30.0
G1 X2.03793 Y2.70270 F30.0
G1 X2.10492 Y2.73441 F30.0
G1 X2.17477 Y2.75934 F30.0
G1 X2.24704 Y2.77737 F30.0
G1 X2.32141 Y2.78830 F30.0
G1 X2.39746 Y2.79199 F30.0
G1 X2.47354 Y2.78830 F30.0
G1 X2.48660 Y2.78638 F30.0
G1 X2.54788 Y2.77737 F30.0
G1 X2.62018 Y2.75934 F30.0
G1 X2.69003 Y2.73441 F30.0
G1 X2.75702 Y2.70270 F30.0
G1 X2.82080 Y2.66440 F30.0
G1 X2.88101 Y2.61966 F30.0
G1 X2.93719 Y2.56863 F30.0
G1 X2.98822 Y2.51245 F30.0
G1 X3.03296 Y2.45224 F30.0
G1 X3.07126 Y2.38846 F30.0
G1 X3.10297 Y2.32147 F30.0
G1 X3.12790 Y2.25162 F30.0
G1 X3.14594 Y2.17932 F30.0
G1 X3.15686 Y2.10498 F30.0
G1 X3.16055 Y2.02890 F30.0
G1 X3.15686 Y1.95285 F30.0
G1 X3.14594 Y1.87848 F30.0
G1 X3.12790 Y1.80621 F30.0
G1 X3.10297 Y1.73636 F30.0
G1 X3.08181 Y1.69167 F30.0
G1 X3.07126 Y1.66937 F30.0
G1 X3.03296 Y1.60556 F30.0
G1 X3.00307 Y1.56536 F30.0
G1 X2.98822 Y1.54538 F30.0
G1 X2.93719 Y1.48917 F30.0
G1 X2.76042 Y1.31239 F30.0
G1 X2.65493 Y1.20690 F30.0
G1 X1.73212 Y0.28409 F30.0
G1 X1.24356 Y0.77264 F30.0
G1 Z-0.25000 F9.0
G1 X1.21564 Y0.79590 F30.0
G1 X0.52701 Y1.48453 F30.0
G1 X0.47601 Y1.54074 F30.0
G1 X0.43127 Y1.60092 F30.0
G1 X0.39294 Y1.66470 F30.0
G1 X0.36124 Y1.73172 F30.0
G1 X0.33630 Y1.80154 F30.0
G1 X0.31830 Y1.87384 F30.0
G1 X0.30734 Y1.94821 F30.0
G1 X0.30368 Y2.02426 F30.0
G1 X0.30734 Y2.10031 F30.0
G1 X0.30987 Y2.11744 F30.0
G1 X0.31830 Y2.17468 F30.0
G1 X0.33630 Y2.24698 F30.0
G1 X0.36124 Y2.31680 F30.0
G1 X0.39294 Y2.38382 F30.0
G1 X0.43127 Y2.44760 F30.0
G1 X0.47601 Y2.50778 F30.0
G1 X0.52301 Y2.55959 F30.0
G1 X0.52701 Y2.56400 F30.0
G1 X0.58493 Y2.61633 F30.0
G1 X0.64667 Y2.66171 F30.0
G1 X0.71170 Y2.70010 F30.0
G1 X0.77942 Y2.73151 F30.0
G1 X0.84937 Y2.75592 F30.0
G1 X0.92090 Y2.77338 F30.0
G1 X0.99356 Y2.78384 F30.0
G1 X1.06674 Y2.78732 F30.0
G1 X1.13992 Y2.78384 F30.0
G1 X1.21259 Y2.77338 F30.0
G1 X1.28415 Y2.75592 F30.0
G1 X1.35406 Y2.73151 F30.0
G1 X1.42181 Y2.70010 F30.0
G1 X1.48682 Y2.66171 F30.0
G1 X1.54855 Y2.61633 F30.0
G1 X1.60648 Y2.56400 F30.0
G1 X1.73212 Y2.43835 F30.0
G1 X1.85773 Y2.56863 F30.0
G1 X1.91394 Y2.61966 F30.0
G1 X1.97412 Y2.66440 F30.0
G1 X2.00658 Y2.68388 F30.0
G1 X2.03793 Y2.70270 F30.0
G1 X2.10492 Y2.73441 F30.0
G1 X2.17477 Y2.75934 F30.0
G1 X2.24704 Y2.77737 F30.0
G1 X2.32141 Y2.78830 F30.0
G1 X2.39746 Y2.79199 F30.0
G1 X2.47354 Y2.78830 F30.0
G1 X2.48660 Y2.78638 F30.0
G1 X2.54788 Y2.77737 F30.0
G1 X2.62018 Y2.75934 F30.0
G1 X2.69003 Y2.73441 F30.0
G1 X2.75702 Y2.70270 F30.0
G1 X2.82080 Y2.66440 F30.0
G1 X2.88101 Y2.61966 F30.0
G1 X2.93719 Y2.56863 F30.0
G1 X2.98822 Y2.51245 F30.0
G1 X3.03296 Y2.45224 F30.0
G1 X3.07126 Y2.38846 F30.0
G1 X3.10297 Y2.32147 F30.0
G1 X3.12790 Y2.25162 F30.0
G1 X3.14594 Y2.17932 F30.0
G1 X3.15686 Y2.10498 F30.0
G1 X3.16055 Y2.02890 F30.0
G1 X3.15686 Y1.95285 F30.0
G1 X3.14594 Y1.87848 F30.0
G1 X3.12790 Y1.80621 F30.0
G1 X3.10297 Y1.73636 F30.0
G1 X3.08181 Y1.69167 F30.0
G1 X3.07126 Y1.66937 F30.0
G1 X3.03296 Y1.60556 F30.0
G1 X3.00307 Y1.56536 F30.0
G1 X2.98822 Y1.54538 F30.0
G1 X2.93719 Y1.48917 F30.0
G1 X2.76042 Y1.31239 F30.0
G1 X2.65493 Y1.20690 F30.0
G1 X1.73212 Y0.28409 F30.0
G1 X1.24356 Y0.77264 F30.0
G1 Z-0.37500 F9.0
G1 X1.21564 Y0.79590 F30.0
G1 X0.52701 Y1.48453 F30.0
G1 X0.47601 Y1.54074 F30.0
G1 X0.43127 Y1.60092 F30.0
G1 X0.39294 Y1.66470 F30.0
G1 X0.36124 Y1.73172 F30.0
G1 X0.33630 Y1.80154 F30.0
G1 X0.31830 Y1.87384 F30.0
G1 X0.30734 Y1.94821 F30.0
G1 X0.30368 Y2.02426 F30.0
G1 X0.30734 Y2.10031 F30.0
G1 X0.30987 Y2.11744 F30.0
G1 X0.31830 Y2.17468 F30.0
G1 X0.33630 Y2.24698 F30.0
G1 X0.36124 Y2.31680 F30.0
G1 X0.39294 Y2.38382 F30.0
G1 X0.43127 Y2.44760 F30.0
G1 X0.47601 Y2.50778 F30.0
G1 X0.52301 Y2.55959 F30.0
G1 X0.52701 Y2.56400 F30.0
G1 X0.58493 Y2.61633 F30.0
G1 X0.64667 Y2.66171 F30.0
G1 X0.71170 Y2.70010 F30.0
G1 X0.77942 Y2.73151 F30.0
G1 X0.84937 Y2.75592 F30.0
G1 X0.92090 Y2.77338 F30.0
G1 X0.99356 Y2.78384 F30.0
G1 X1.06674 Y2.78732 F30.0
G1 X1.13992 Y2.78384 F30.0
G1 X1.21259 Y2.77338 F30.0
G1 X1.28415 Y2.75592 F30.0
G1 X1.35406 Y2.73151 F30.0
G1 X1.42181 Y2.70010 F30.0
G1 X1.48682 Y2.66171 F30.0
G1 X1.54855 Y2.61633 F30.0
G1 X1.60648 Y2.56400 F30.0
G1 X1.73212 Y2.43835 F30.0
G1 X1.85773 Y2.56863 F30.0
G1 X1.91394 Y2.61966 F30.0
G1 X1.97412 Y2.66440 F30.0
G1 X2.00658 Y2.68388 F30.0
G1 X2.03793 Y2.70270 F30.0
G1 X2.10492 Y2.73441 F30.0
G1 X2.17477 Y2.75934 F30.0
G1 X2.24704 Y2.77737 F30.0
G1 X2.32141 Y2.78830 F30.0
G1 X2.39746 Y2.79199 F30.0
G1 X2.47354 Y2.78830 F30.0
G1 X2.48660 Y2.78638 F30.0
G1 X2.54788 Y2.77737 F30.0
G1 X2.62018 Y2.75934 F30.0
G1 X2.69003 Y2.73441 F30.0
G1 X2.75702 Y2.70270 F30.0
G1 X2.82080 Y2.66440 F30.0
G1 X2.88101 Y2.61966 F30.0
G1 X2.93719 Y2.56863 F30.0
G1 X2.98822 Y2.51245 F30.0
G1 X3.03296 Y2.45224 F30.0
G1 X3.07126 Y2.38846 F30.0
G1 X3.10297 Y2.32147 F30.0
G1 X3.12790 Y2.25162 F30.0
G1 X3.14594 Y2.17932 F30.0
G1 X3.15686 Y2.10498 F30.0
G1 X3.16055 Y2.02890 F30.0
G1 X3.15686 Y1.95285 F30.0
G1 X3.14594 Y1.87848 F30.0
G1 X3.12790 Y1.80621 F30.0
G1 X3.10297 Y1.73636 F30.0
G1 X3.08181 Y1.69167 F30.0
G1 X3.07126 Y1.66937 F30.0
G1 X3.03296 Y1.60556 F30.0
G1 X3.00307 Y1.56536 F30.0
G1 X2.98822 Y1.54538 F30.0
G1 X2.93719 Y1.48917 F30.0
G1 X2.76042 Y1.31239 F30.0
G1 X2.65493 Y1.20690 F30.0
G1 X1.73212 Y0.28409 F30.0
G1 X1.24356 Y0.77264 F30.0
G1 Z-0.50000 F9.0
G1 X1.21564 Y0.79590 F30.0
G1 X0.52701 Y1.48453 F30.0
G1 X0.47601 Y1.54074 F30.0
G1 X0.43127 Y1.60092 F30.0
G1 X0.39294 Y1.66470 F30.0
G1 X0.36124 Y1.73172 F30.0
G1 X0.33630 Y1.80154 F30.0
G1 X0.31830 Y1.87384 F30.0
G1 X0.30734 Y1.94821 F30.0
G1 X0.30368 Y2.02426 F30.0
G1 X0.30734 Y2.10031 F30.0
G1 X0.30987 Y2.11744 F30.0
G1 Z-0.42000 F9.0
G1 X0.31830 Y2.17468 F30.0
G1 X0.33630 Y2.24698 F30.0
G1 X0.36124 Y2.31680 F30.0
G1 X0.39294 Y2.38382 F30.0
G1 X0.43127 Y2.44760 F30.0
G1 X0.47601 Y2.50778 F30.0
G1 X0.52301 Y2.55959 F30.0
G1 Z-0.50000 F9.0
G1 X0.52701 Y2.56400 F30.0
G1 X0.58493 Y2.61633 F30.0
G1 X0.64667 Y2.66171 F30.0
G1 X0.71170 Y2.70010 F30.0
G1 X0.77942 Y2.73151 F30.0
G1 X0.84937 Y2.75592 F30.0
G1 X0.92090 Y2.77338 F30.0
G1 X0.99356 Y2.78384 F30.0
G1 X1.06674 Y2.78732 F30.0
G1 X1.13992 Y2.78384 F30.0
G1 X1.21259 Y2.77338 F30.0
G1 X1.28415 Y2.75592 F30.0
G1 X1.35406 Y2.73151 F30.0
G1 X1.42181 Y2.70010 F30.0
G1 X1.48682 Y2.66171 F30.0
G1 X1.54855 Y2.61633 F30.0
G1 X1.60648 Y2.56400 F30.0
G1 X1.73212 Y2.43835 F30.0
G1 X1.85773 Y2.56863 F30.0
G1 X1.91394 Y2.61966 F30.0
G1 X1.97412 Y2.66440 F30.0
G1 X2.00658 Y2.68388 F30.0
G1 Z-0.42000 F9.0
G1 X2.03793 Y2.70270 F30.0
G1 X2.10492 Y2.73441 F30.0
G1 X2.17477 Y2.75934 F30.0
G1 X2.24704 Y2.77737 F30.0
G1 X2.32141 Y2.78830 F30.0
G1 X2.39746 Y2.79199 F30.0
G1 X2.47354 Y2.78830 F30.0
G1 X2.48660 Y2.78638 F30.0
G1 Z-0.50000 F9.0
G1 X2.54788 Y2.77737 F30.0
G1 X2.62018 Y2.75934 F30.0
G1 X2.69003 Y2.73441 F30.0
G1 X2.75702 Y2.70270 F30.0
G1 X2.82080 Y2.66440 F30.0
G1 X2.88101 Y2.61966 F30.0
G1 X2.93719 Y2.56863 F30.0
G1 X2.98822 Y2.51245 F30.0
G1 X3.03296 Y2.45224 F30.0
G1 X3.07126 Y2.38846 F30.0
G1 X3.10297 Y2.32147 F30.0
G1 X3.12790 Y2.25162 F30.0
G1 X3.14594 Y2.17932 F30.0
G1 X3.15686 Y2.10498 F30.0
G1 X3.16055 Y2.02890 F30.0
G1 X3.15686 Y1.95285 F30.0
G1 X3.14594 Y1.87848 F30.0
G1 X3.12790 Y1.80621 F30.0
G1 X3.10297 Y1.73636 F30.0
G1 X3.08181 Y1.69167 F30.0
G1 Z-0.42000 F9.0
G1 X3.07126 Y1.66937 F30.0
G1 X3.03296 Y1.60556 F30.0
G1 X3.00307 Y1.56536 F30.0
G1 X2.98822 Y1.54538 F30.0
G1 X2.93719 Y1.48917 F30.0
G1 X2.76042 Y1.31239 F30.0
G1 X2.65493 Y1.20690 F30.0
G1 Z-0.50000 F9.0
G1 X1.73212 Y0.28409 F30.0
G1 X1.24356 Y0.77264 F30.0
G1 Z0.15000 F9.0
G0 X2.96979 Y1.45660
G1 Z-0.12500 F9.0
G1 X3.02405 Y1.51633 F30.0
G1 X3.03607 Y1.53243 F30.0
G1 X3.07162 Y1.58005 F30.0
G1 X3.11234 Y1.64749 F30.0
G1 X3.11706 Y1.65743 F30.0
G1 X3.14600 Y1.71832 F30.0
G1 X3.17249 Y1.79221 F30.0
G1 X3.19159 Y1.86884 F30.0
G1 X3.20319 Y1.94785 F30.0
G1 X3.20706 Y2.02890 F30.0
G1 X3.20319 Y2.10999 F30.0
G1 X3.19159 Y2.18900 F30.0
G1 X3.17249 Y2.26563 F30.0
G1 X3.14600 Y2.33951 F30.0
G1 X3.11234 Y2.41031 F30.0
G1 X3.07162 Y2.47778 F30.0
G1 X3.02405 Y2.54150 F30.0
G1 X2.96979 Y2.60123 F30.0
G1 X2.91006 Y2.65549 F30.0
G1 X2.84634 Y2.70306 F30.0
G1 X2.77887 Y2.74377 F30.0
G1 X2.70804 Y2.77744 F30.0
G1 X2.63416 Y2.80392 F30.0
G1 X2.55756 Y2.82303 F30.0
G1 X2.47855 Y2.83463 F30.0
G1 X2.47535 Y2.83478 F30.0
G1 X2.39746 Y2.83850 F30.0
G1 X2.31641 Y2.83463 F30.0
G1 X2.23740 Y2.82303 F30.0
G1 X2.16077 Y2.80392 F30.0
G1 X2.08688 Y2.77744 F30.0
G1 X2.01605 Y2.74377 F30.0
G1 X1.99454 Y2.73079 F30.0
G1 X1.94861 Y2.70306 F30.0
G1 X1.88489 Y2.65549 F30.0
G1 X1.82516 Y2.60123 F30.0
G1 X1.73212 Y2.50815 F30.0
G1 X1.60883 Y2.62994 F30.0
G1 X1.54523 Y2.68185 F30.0
G1 X1.47791 Y2.72635 F30.0
G1 X1.44305 Y2.74582 F30.0
G1 X1.37122 Y2.77921 F30.0
G1 X1.29712 Y2.80515 F30.0
G1 X1.22128 Y2.82370 F30.0
G1 X1.14429 Y2.83481 F30.0
G1 X1.06674 Y2.83850 F30.0
G1 X0.98920 Y2.83481 F30.0
G1 X0.91223 Y2.82370 F30.0
G1 X0.83640 Y2.80515 F30.0
G1 X0.76227 Y2.77921 F30.0
G1 X0.69046 Y2.74582 F30.0
G1 X0.62149 Y2.70505 F30.0
G1 X0.55597 Y2.65683 F30.0
G1 X0.49445 Y2.60123 F30.0
G1 X0.47691 Y2.58194 F30.0
G1 X0.44016 Y2.54150 F30.0
G1 X0.39258 Y2.47778 F30.0
G1 X0.35187 Y2.41031 F30.0
G1 X0.31821 Y2.33951 F30.0
G1 X0.29175 Y2.26563 F30.0
G1 X0.27261 Y2.18900 F30.0
G1 X0.26520 Y2.13837 F30.0
G1 X0.26105 Y2.10999 F30.0
G1 X0.25714 Y2.02890 F30.0
G1 X0.26105 Y1.94785 F30.0
G1 X0.27261 Y1.86884 F30.0
G1 X0.29175 Y1.79221 F30.0
G1 X0.31821 Y1.71832 F30.0
G1 X0.35187 Y1.64749 F30.0
G1 X0.39258 Y1.58005 F30.0
G1 X0.44016 Y1.51633 F30.0
G1 X0.49445 Y1.45660 F30.0
G1 X1.15979 Y0.78659 F30.0
G1 X1.17841 Y0.77264 F30.0
G1 X1.73212 Y0.21429 F30.0
G1 X2.68803 Y1.17379 F30.0
G1 X2.79334 Y1.27949 F30.0
G1 X2.96979 Y1.45660 F30.0
G1 Z-0.25000 F9.0
G1 X3.02405 Y1.51633 F30.0
G1 X3.03607 Y1.53243 F30.0
G1 X3.07162 Y1.58005 F30.0
G1 X3.11234 Y1.64749 F30.0
G1 X3.11706 Y1.65743 F30.0
G1 X3.14600 Y1.71832 F30.0
G1 X3.17249 Y1.79221 F30.0
G1 X3.19159 Y1.86884 F30.0
G1 X3.20319 Y1.94785 F30.0
G1 X3.20706 Y2.02890 F30.0
G1 X3.20319 Y2.10999 F30.0
G1 X3.19159 Y2.18900 F30.0
G1 X3.17249 Y2.26563 F30.0
G1 X3.14600 Y2.33951 F30.0
G1 X3.11234 Y2.41031 F30.0
G1 X3.07162 Y2.47778 F30.0
G1 X3.02405 Y2.54150 F30.0
G1 X2.96979 Y2.60123 F30.0
G1 X2.91006 Y2.65549 F30.0
G1 X2.84634 Y2.70306 F30.0
G1 X2.77887 Y2.74377 F30.0
G1 X2.70804 Y2.77744 F30.0
G1 X2.63416 Y2.80392 F30.0
G1 X2.55756 Y2.82303 F30.0
G1 X2.47855 Y2.83463 F30.0
G1 X2.47535 Y2.83478 F30.0
G1 X2.39746 Y2.83850 F30.0
G1 X2.31641 Y2.83463 F30.0
G1 X2.23740 Y2.82303 F30.0
G1 X2.16077 Y2.80392 F30.0
G1 X2.08688 Y2.77744 F30.0
G1 X2.01605 Y2.74377 F30.0
G1 X1.99454 Y2.73079 F30.0
G1 X1.94861 Y2.70306 F30.0
G1 X1.88489 Y2.65549 F30.0
G1 X1.82516 Y2.60123 F30.0
G1 X1.73212 Y2.50815 F30.0
G1 X1.60883 Y2.62994 F30.0
G1 X1.54523 Y2.68185 F30.0
G1 X1.47791 Y2.72635 F30.0
G1 X1.44305 Y2.74582 F30.0
G1 X1.37122 Y2.77921 F30.0
G1 X1.29712 Y2.80515 F30.0
G1 X1.22128 Y2.82370 F30.0
G1 X1.14429 Y2.83481 F30.0
G1 X1.06674 Y2.83850 F30.0
G1 X0.98920 Y2.83481 F30.0
G1 X0.91223 Y2.82370 F30.0
G1 X0.83640 Y2.80515 F30.0
G1 X0.76227 Y2.77921 F30.0
G1 X0.69046 Y2.74582 F30.0
G1 X0.62149 Y2.70505 F30.0
G1 X0.55597 Y2.65683 F30.0
G1 X0.49445 Y2.60123 F30.0
G1 X0.47691 Y2.58194 F30.0
G1 X0.44016 Y2.54150 F30.0
G1 X0.39258 Y2.47778 F30.0
G1 X0.35187 Y2.41031 F30.0
G1 X0.31821 Y2.33951 F30.0
G1 X0.29175 Y2.26563 F30.0
G1 X0.27261 Y2.18900 F30.0
G1 X0.26520 Y2.13837 F30.0
G1 X0.26105 Y2.10999 F30.0
G1 X0.25714 Y2.02890 F30.0
G1 X0.26105 Y1.94785 F30.0
G1 X0.27261 Y1.86884 F30.0
G1 X0.29175 Y1.79221 F30.0
G1 X0.31821 Y1.71832 F30.0
G1 X0.35187 Y1.64749 F30.0
G1 X0.39258 Y1.58005 F30.0
G1 X0.44016 Y1.51633 F30.0
G1 X0.49445 Y1.45660 F30.0
G1 X1.15979 Y0.78659 F30.0
G1 X1.17841 Y0.77264 F30.0
G1 X1.73212 Y0.21429 F30.0
G1 X2.68803 Y1.17379 F30.0
G1 X2.79334 Y1.27949 F30.0
G1 X2.96979 Y1.45660 F30.0
G1 Z-0.37500 F9.0
G1 X3.02405 Y1.51633 F30.0
G1 X3.03607 Y1.53243 F30.0
G1 X3.07162 Y1.58005 F30.0
G1 X3.11234 Y1.64749 F30.0
G1 X3.11706 Y1.65743 F30.0
G1 X3.14600 Y1.71832 F30.0
G1 X3.17249 Y1.79221 F30.0
G1 X3.19159 Y1.86884 F30.0
G1 X3.20319 Y1.94785 F30.0
G1 X3.20706 Y2.02890 F30.0
G1 X3.20319 Y2.10999 F30.0
G1 X3.19159 Y2.18900 F30.0
G1 X3.17249 Y2.26563 F30.0
G1 X3.14600 Y2.33951 F30.0
G1 X3.11234 Y2.41031 F30.0
G1 X3.07162 Y2.47778 F30.0
G1 X3.02405 Y2.54150 F30.0
G1 X2.96979 Y2.60123 F30.0
G1 X2.91006 Y2.65549 F30.0
G1 X2.84634 Y2.70306 F30.0
G1 X2.77887 Y2.74377 F30.0
G1 X2.70804 Y2.77744 F30.0
G1 X2.63416 Y2.80392 F30.0
G1 X2.55756 Y2.82303 F30.0
G1 X2.47855 Y2.83463 F30.0
G1 X2.47535 Y2.83478 F30.0
G1 X2.39746 Y2.83850 F30.0
G1 X2.31641 Y2.83463 F30.0
G1 X2.23740 Y2.82303 F30.0
G1 X2.16077 Y2.80392 F30.0
G1 X2.08688 Y2.77744 F30.0
G1 X2.01605 Y2.74377 F30.0
G1 X1.99454 Y2.73079 F30.0
G1 X1.94861 Y2.70306 F30.0
G1 X1.88489 Y2.65549 F30.0
G1 X1.82516 Y2.60123 F30.0
G1 X1.73212 Y2.50815 F30.0
G1 X1.60883 Y2.62994 F30.0
G1 X1.54523 Y2.68185 F30.0
G1 X1.47791 Y2.72635 F30.0
G1 X1.44305 Y2.74582 F30.0
G1 X1.37122 Y2.77921 F30.0
G1 X1.29712 Y2.80515 F30.0
G1 X1.22128 Y2.82370 F30.0
G1 X1.14429 Y2.83481 F30.0
G1 X1.06674 Y2.83850 F30.0
G1 X0.98920 Y2.83481 F30.0
G1 X0.91223 Y2.82370 F30.0
G1 X0.83640 Y2.80515 F30.0
G1 X0.76227 Y2.77921 F30.0
G1 X0.69046 Y2.74582 F30.0
G1 X0.62149 Y2.70505 F30.0
G1 X0.55597 Y2.65683 F30.0
G1 X0.49445 Y2.60123 F30.0
G1 X0.47691 Y2.58194 F30.0
G1 X0.44016 Y2.54150 F30.0
G1 X0.39258 Y2.47778 F30.0
G1 X0.35187 Y2.41031 F30.0
G1 X0.31821 Y2.33951 F30.0
G1 X0.29175 Y2.26563 F30.0
G1 X0.27261 Y2.18900 F30.0
G1 X0.26520 Y2.13837 F30.0
G1 X0.26105 Y2.10999 F30.0
G1 X0.25714 Y2.02890 F30.0
G1 X0.26105 Y1.94785 F30.0
G1 X0.27261 Y1.86884 F30.0
G1 X0.29175 Y1.79221 F30.0
G1 X0.31821 Y1.71832 F30.0
G1 X0.35187 Y1.64749 F30.0
G1 X0.39258 Y1.58005 F30.0
G1 X0.44016 Y1.51633 F30.0
G1 X0.49445 Y1.45660 F30.0
G1 X1.15979 Y0.78659 F30.0
G1 X1.17841 Y0.77264 F30.0
G1 X1.73212 Y0.21429 F30.0
G1 X2.68803 Y1.17379 F30.0
G1 X2.79334 Y1.27949 F30.0
G1 X2.96979 Y1.45660 F30.0
G1 Z-0.42000 F9.0
G1 X3.02405 Y1.51633 F30.0
G1 X3.03607 Y1.53243 F30.0
G1 X3.07162 Y1.58005 F30.0
G1 X3.11234 Y1.64749 F30.0
G1 X3.11706 Y1.65743 F30.0
G1 Z-0.50000 F9.0
G1 X3.14600 Y1.71832 F30.0
G1 X3.17249 Y1.79221 F30.0
G1 X3.19159 Y1.86884 F30.0
G1 X3.20319 Y1.94785 F30.0
G1 X3.20706 Y2.02890 F30.0
G1 X3.20319 Y2.10999 F30.0
G1 X3.19159 Y2.18900 F30.0
G1 X3.17249 Y2.26563 F30.0
G1 X3.14600 Y2.33951 F30.0
G1 X3.11234 Y2.41031 F30.0
G1 X3.07162 Y2.47778 F30.0
G1 X3.02405 Y2.54150 F30.0
G1 X2.96979 Y2.60123 F30.0
G1 X2.91006 Y2.65549 F30.0
G1 X2.84634 Y2.70306 F30.0
G1 X2.77887 Y2.74377 F30.0
G1 X2.70804 Y2.77744 F30.0
G1 X2.63416 Y2.80392 F30.0
G1 X2.55756 Y2.82303 F30.0
G1 X2.47855 Y2.83463 F30.0
G1 X2.47535 Y2.83478 F30.0
G1 Z-0.42000 F9.0
G1 X2.39746 Y2.83850 F30.0
G1 X2.31641 Y2.83463 F30.0
G1 X2.23740 Y2.82303 F30.0
G1 X2.16077 Y2.80392 F30.0
G1 X2.08688 Y2.77744 F30.0
G1 X2.01605 Y2.74377 F30.0
G1 X1.99454 Y2.73079 F30.0
G1 Z-0.50000 F9.0
G1 X1.94861 Y2.70306 F30.0
G1 X1.88489 Y2.65549 F30.0
G1 X1.82516 Y2.60123 F30.0
G1 X1.73212 Y2.50815 F30.0
G1 X1.60883 Y2.62994 F30.0
G1 X1.54523 Y2.68185 F30.0
G1 X1.47791 Y2.72635 F30.0
G1 X1.44305 Y2.74582 F30.0
G1 X1.37122 Y2.77921 F30.0
G1 X1.29712 Y2.80515 F30.0
G1 X1.22128 Y2.82370 F30.0
G1 X1.14429 Y2.83481 F30.0
G1 X1.06674 Y2.83850 F30.0
G1 X0.98920 Y2.83481 F30.0
G1 X0.91223 Y2.82370 F30.0
G1 X0.83640 Y2.80515 F30.0
G1 X0.76227 Y2.77921 F30.0
G1 X0.69046 Y2.74582 F30.0
G1 X0.62149 Y2.70505 F30.0
G1 X0.55597 Y2.65683 F30.0
G1 X0.49445 Y2.60123 F30.0
G1 X0.47691 Y2.58194 F30.0
G1 Z-0.42000 F9.0
G1 X0.44016 Y2.54150 F30.0
G1 X0.39258 Y2.47778 F30.0
G1 X0.35187 Y2.41031 F30.0
G1 X0.31821 Y2.33951 F30.0
G1 X0.29175 Y2.26563 F30.0
G1 X0.27261 Y2.18900 F30.0
G1 X0.26520 Y2.13837 F30.0
G1 Z-0.50000 F9.0
G1 X0.26105 Y2.10999 F30.0
G1 X0.25714 Y2.02890 F30.0
G1 X0.26105 Y1.94785 F30.0
G1 X0.27261 Y1.86884 F30.0
G1 X0.29175 Y1.79221 F30.0
G1 X0.31821 Y1.71832 F30.0
G1 X0.35187 Y1.64749 F30.0
G1 X0.39258 Y1.58005 F30.0
G1 X0.44016 Y1.51633 F30.0
G1 X0.49445 Y1.45660 F30.0
G1 X1.15979 Y0.78659 F30.0
G1 X1.17841 Y0.77264 F30.0
G1 X1.73212 Y0.21429 F30.0
G1 X2.68803 Y1.17379 F30.0
G1 Z-0.42000 F9.0
G1 X2.79334 Y1.27949 F30.0
G1 X2.96979 Y1.45660 F30.0
G20
G90
G1 Z0.15000 F9.0
G0 X0.00000 Y0.00000
G4 P0.1
