(1001)
(T1  D=0.25 CR=0 - ZMIN=-0.5 - FLAT END MILL)
G0 G40 G90 G17
G20

(CONTOUR ROUGH)
T1 M6
M3 S10000
G0 X2.25 Y-0.1443
G0 Z0.1
G0 Z0.1
G1 Z-0.125 F15.
G1 X-0.0625 Y1.1908 F55.
G1 X-0.125 Y1.2269
G1 Y3.9693
G1 X2.1875 Y5.3044
G1 X2.25 Y5.3405
G1 X4.625 Y3.9693
G1 Y1.299
G1 Y1.2269
G1 X2.25 Y-0.1443
G1 Z-0.25 F15.
G1 X-0.0625 Y1.1908 F55.
G1 X-0.125 Y1.2269
G1 Y3.9693
G1 X2.1875 Y5.3044
G1 X2.25 Y5.3405
G1 X4.625 Y3.9693
G1 Y1.299
G1 Y1.2269
G1 X2.25 Y-0.1443
G1 Z-0.375 F15.
G1 X-0.125 Y1.2269 F55.
G1 Y2.3329
G1 Y2.4996 Z-0.35
G1 Y2.7496
G1 Y2.9163 Z-0.375 F15.
G1 Y3.9693 F55.
G1 X2.25 Y5.3405
G1 X4.625 Y3.9693
G1 Y1.2269
G1 X2.25 Y-0.1443
G1 Z-0.5 F15.
G1 X-0.125 Y1.2269 F55.
G1 Y1.4996
G1 Y2.4996 Z-0.35
G1 Y2.7496
G1 Y3.7496 Z-0.5 F15.
G1 Y3.9693 F55.
G1 X2.25 Y5.3405
G1 X4.625 Y3.9693
G1 Y1.2269
G1 X2.25 Y-0.1443
G0 Z0.2

M5
M30
